; generated by Slic3r 1.3.1-dev on 2021-05-22 at 18:36:31

; external perimeters extrusion width = 0.35mm (3.68mm^3/s)
; perimeters extrusion width = 0.35mm (6.14mm^3/s)
; infill extrusion width = 0.40mm (10.71mm^3/s)
; solid infill extrusion width = 0.35mm (6.14mm^3/s)
; top infill extrusion width = 0.35mm (4.91mm^3/s)

M107
;Startcode FELIXprinters
;Pre-initialize
;================================
G90 ; absolute mode
M107 ; Turn off fan

; Heat up heaters
;================================
; First start heating up, this will prevent damage, if previous print is still on the bed and 
; stuck to the hot-end
G90 ; Absolute positioning
M82 ; Extruder in absolute
M104 S220
M140 S60
M109 S220
M190 S60

; Move up head a little before homing to prevent collision with remainders of filament and bed.
;================================
G91 ; Make coordinates relative
G1 Z1 F200; Move up head a little to prevent tw mm (from current position because it is all relative now) 
G90 ; Use absolute coordinates again

; Home printer
;================================
G28 ; Home all axes

; Purge extruder by drawing 2 lines
;================================
G92 E0			; reset extruder
G1 Z1.0 F3000		; move z down little to prevent scratching of surface
G1 X20.0 Y0.1 Z0.3 F3000.0	; move to start-line position
G1 X200.0 Y0.1 Z0.3 F1500.0 E15	; draw 1st line
G1 X200.0 Y1 Z0.3 F3000.0	; move to side a little
G1 X20.0 Y1 Z0.3 F1500.0 E30	; draw 2nd line
G1 E29.5 F3000		; retract filament 1.5mm
G92 E0					; reset extruder
; done purging
M117 Done purging

; Post-initialize
;================================
M106 ; Turn on fans
M117 FELIXprinting...
; Filament gcode

; Filament gcode

G21 ; set units to millimeters
G90 ; use absolute coordinates
M82 ; use absolute distances for extrusion
G92 E0
G92 E0
G1 E-5.00000 F4200.00000
G92 E0
G1 Z0.250 F9000.000
G1 X113.825 Y120.500 F9000.000
G1 Z0.200 F9000.000
G1 E5.00000 F4200.00000
M201 X600 Y600
M204 P600 T600
G1 F1440
G1 X113.825 Y124.000 E5.08490
G1 X105.175 Y124.000 E5.29472
G1 X105.175 Y100.828 E5.85681
G1 X105.215 Y99.576 E5.88721
G1 X105.341 Y98.278 E5.91883
G1 X105.525 Y97.115 E5.94739
G1 X105.797 Y95.901 E5.97758
G1 X106.165 Y94.646 E6.00930
G1 X106.564 Y93.536 E6.03792
G1 X107.059 Y92.392 E6.06815
G1 X107.623 Y91.282 E6.09836
G1 X108.255 Y90.213 E6.12847
G1 X108.955 Y89.182 E6.15870
G1 X109.757 Y88.152 E6.19037
G1 X110.538 Y87.265 E6.21903
G1 X111.125 Y86.666 E6.23938
G1 X111.462 Y86.344 E6.25070
G1 X112.349 Y85.561 E6.27938
G1 X113.332 Y84.798 E6.30956
G1 X114.362 Y84.097 E6.33980
G1 X115.430 Y83.464 E6.36991
G1 X116.539 Y82.897 E6.40012
G1 X117.681 Y82.401 E6.43033
G1 X119.089 Y81.903 E6.46656
G1 X120.046 Y81.630 E6.49068
G1 X121.033 Y81.402 E6.51526
G1 X122.487 Y81.161 E6.55101
G1 X123.727 Y81.042 E6.58123
G1 X124.986 Y81.001 E6.61179
G1 X126.273 Y81.042 E6.64302
G1 X127.513 Y81.161 E6.67324
G1 X129.001 Y81.409 E6.70984
G1 X129.954 Y81.630 E6.73356
G1 X130.945 Y81.913 E6.75855
G1 X132.318 Y82.401 E6.79392
G1 X133.461 Y82.897 E6.82413
G1 X134.570 Y83.464 E6.85434
G1 X135.638 Y84.097 E6.88445
G1 X136.618 Y84.763 E6.91320
G1 X137.651 Y85.562 E6.94487
G1 X138.537 Y86.344 E6.97355
G1 X139.462 Y87.265 E7.00521
G1 X140.243 Y88.152 E7.03388
G1 X141.045 Y89.182 E7.06554
G1 X141.745 Y90.213 E7.09578
G1 X142.377 Y91.282 E7.12589
G1 X142.941 Y92.392 E7.15610
G1 X143.436 Y93.536 E7.18632
G1 X143.835 Y94.646 E7.21494
G1 X144.203 Y95.901 E7.24667
G1 X144.475 Y97.115 E7.27686
G1 X144.659 Y98.278 E7.30542
G1 X144.785 Y99.576 E7.33704
G1 X144.825 Y100.828 E7.36743
G1 X144.825 Y124.000 E7.92952
G1 X136.175 Y124.000 E8.13935
G1 X136.175 Y120.500 E8.22425
G1 X113.878 Y120.500 E8.76512
M201 X2000 Y2000
M204 P2000 T2000
G1 X113.475 Y120.482 F9000.000
G1 X113.518 Y120.193 F9000.000
M201 X600 Y600
M204 P600 T600
G1 F2400
G1 X113.518 Y123.693 E8.85002
G1 X105.482 Y123.693 E9.04494
G1 X105.482 Y100.833 E9.59947
G1 X105.522 Y99.596 E9.62950
G1 X105.646 Y98.317 E9.66065
G1 X105.827 Y97.173 E9.68876
G1 X106.094 Y95.977 E9.71847
G1 X106.457 Y94.741 E9.74973
G1 X106.850 Y93.649 E9.77788
G1 X107.337 Y92.523 E9.80764
G1 X107.893 Y91.430 E9.83739
G1 X108.514 Y90.378 E9.86703
G1 X109.203 Y89.363 E9.89679
G1 X109.993 Y88.348 E9.92798
G1 X110.763 Y87.474 E9.95622
G1 X111.341 Y86.884 E9.97625
G1 X111.670 Y86.570 E9.98729
G1 X112.545 Y85.798 E10.01560
G1 X113.513 Y85.047 E10.04532
G1 X114.527 Y84.356 E10.07509
G1 X115.578 Y83.733 E10.10473
G1 X116.670 Y83.175 E10.13447
G1 X117.794 Y82.687 E10.16419
G1 X119.183 Y82.195 E10.19993
G1 X120.122 Y81.927 E10.22363
G1 X121.092 Y81.703 E10.24778
G1 X122.526 Y81.466 E10.28304
G1 X123.747 Y81.349 E10.31278
G1 X124.986 Y81.308 E10.34286
G1 X126.253 Y81.349 E10.37361
G1 X127.473 Y81.466 E10.40334
G1 X128.941 Y81.710 E10.43944
G1 X129.877 Y81.927 E10.46274
G1 X130.851 Y82.206 E10.48731
G1 X132.206 Y82.687 E10.52219
G1 X133.330 Y83.175 E10.55191
G1 X134.422 Y83.733 E10.58166
G1 X135.473 Y84.356 E10.61130
G1 X136.438 Y85.012 E10.63959
G1 X137.455 Y85.798 E10.67079
G1 X138.330 Y86.570 E10.69908
G1 X139.237 Y87.474 E10.73015
G1 X140.007 Y88.348 E10.75840
G1 X140.797 Y89.363 E10.78959
G1 X141.486 Y90.378 E10.81935
G1 X142.107 Y91.430 E10.84899
G1 X142.663 Y92.523 E10.87874
G1 X143.150 Y93.649 E10.90850
G1 X143.543 Y94.741 E10.93665
G1 X143.906 Y95.977 E10.96791
G1 X144.173 Y97.173 E10.99762
G1 X144.354 Y98.317 E11.02573
G1 X144.478 Y99.596 E11.05688
G1 X144.518 Y100.833 E11.08691
G1 X144.518 Y123.693 E11.64144
G1 X136.482 Y123.693 E11.83636
G1 X136.482 Y120.193 E11.92126
G1 X113.570 Y120.193 E12.47703
M201 X2000 Y2000
M204 P2000 T2000
G1 E7.47703 F4200.00000
G92 E0
G1 Z0.450 F9000.000
G1 X116.875 Y110.265 F9000.000
G1 Z0.200 F9000.000
G1 E5.00000 F4200.00000
M201 X600 Y600
M204 P600 T600
G1 F1440
G1 X117.100 Y110.882 E5.01593
G1 X117.172 Y111.141 E5.02244
G1 X117.206 Y111.409 E5.02900
G1 X117.199 Y111.682 E5.03563
G1 X117.152 Y111.950 E5.04223
G1 X117.064 Y112.210 E5.04886
G1 X116.940 Y112.452 E5.05546
G1 X116.781 Y112.672 E5.06205
G1 X116.618 Y112.848 E5.06787
G1 X116.372 Y113.034 E5.07535
G1 X116.134 Y113.164 E5.08194
G1 X115.876 Y113.257 E5.08859
G1 X115.610 Y113.311 E5.09518
G1 X115.333 Y113.325 E5.10190
G1 X114.949 Y113.273 E5.11130
G1 X114.553 Y113.126 E5.12153
G1 X114.316 Y112.982 E5.12827
G1 X114.108 Y112.807 E5.13487
G1 X113.927 Y112.602 E5.14150
G1 X113.781 Y112.375 E5.14805
G1 X113.670 Y112.130 E5.15457
G1 X113.101 Y110.567 E5.19491
G1 X113.031 Y110.320 E5.20115
G1 X112.997 Y110.064 E5.20741
G1 X112.999 Y109.805 E5.21369
G1 X113.038 Y109.546 E5.22004
G1 X113.113 Y109.298 E5.22632
G1 X113.224 Y109.061 E5.23267
G1 X113.366 Y108.844 E5.23895
G1 X113.539 Y108.648 E5.24530
G1 X113.736 Y108.480 E5.25159
G1 X113.954 Y108.342 E5.25784
G1 X114.188 Y108.237 E5.26408
G1 X115.103 Y107.904 E5.28768
G1 X114.697 Y107.313 E5.30507
G1 X114.226 Y106.496 E5.32795
G1 X113.819 Y105.643 E5.35087
G1 X113.478 Y104.759 E5.37384
G1 X113.208 Y103.854 E5.39675
G1 X113.008 Y102.928 E5.41974
G1 X112.881 Y101.993 E5.44264
G1 X112.827 Y101.047 E5.46563
G1 X112.846 Y100.102 E5.48853
G1 X112.940 Y99.160 E5.51152
G1 X113.105 Y98.230 E5.53443
G1 X113.343 Y97.313 E5.55740
G1 X113.650 Y96.419 E5.58032
G1 X114.025 Y95.554 E5.60320
G1 X114.431 Y94.787 E5.62425
G1 X113.084 Y90.718 E5.72823
G1 X113.019 Y90.457 E5.73474
G1 X112.994 Y90.190 E5.74124
G1 X113.001 Y89.953 E5.74699
G1 X113.063 Y89.649 E5.75454
G1 X113.158 Y89.392 E5.76118
G1 X113.289 Y89.154 E5.76777
G1 X113.456 Y88.936 E5.77441
G1 X113.651 Y88.747 E5.78100
G1 X113.874 Y88.588 E5.78765
G1 X114.116 Y88.466 E5.79424
G1 X114.376 Y88.379 E5.80089
G1 X114.647 Y88.333 E5.80755
G1 X115.045 Y88.339 E5.81720
G1 X115.448 Y88.437 E5.82725
G1 X115.698 Y88.551 E5.83393
G1 X115.927 Y88.700 E5.84057
G1 X116.131 Y88.882 E5.84717
G1 X116.305 Y89.092 E5.85380
G1 X116.445 Y89.323 E5.86035
G1 X116.549 Y89.570 E5.86687
G1 X117.187 Y91.498 E5.91611
G1 X117.738 Y91.053 E5.93329
G1 X118.530 Y90.512 E5.95655
G1 X118.963 Y90.253 E5.96880
G1 X119.366 Y90.032 E5.97995
G1 X120.237 Y89.621 E6.00330
G1 X120.905 Y89.361 E6.02069
G1 X122.062 Y89.010 E6.05002
G1 X122.989 Y88.817 E6.07298
G1 X123.962 Y88.695 E6.09677
G1 X124.924 Y88.650 E6.12014
G1 X125.887 Y88.683 E6.14350
G1 X126.845 Y88.791 E6.16689
G1 X127.789 Y88.974 E6.19022
G1 X128.718 Y89.232 E6.21360
G1 X129.138 Y89.376 E6.22438
G1 X129.623 Y89.562 E6.23699
G1 X130.499 Y89.963 E6.26035
G1 X131.140 Y90.312 E6.27806
G1 X132.138 Y90.963 E6.30696
G1 X132.818 Y91.497 E6.32793
G1 X133.126 Y91.385 E6.33588
G1 X132.849 Y90.602 E6.35602
G1 X132.794 Y90.244 E6.36481
G1 X132.801 Y89.968 E6.37149
G1 X132.848 Y89.700 E6.37810
G1 X132.936 Y89.441 E6.38473
G1 X133.060 Y89.199 E6.39133
G1 X133.220 Y88.977 E6.39797
G1 X133.409 Y88.782 E6.40456
G1 X133.627 Y88.617 E6.41120
G1 X133.856 Y88.490 E6.41754
G1 X134.125 Y88.393 E6.42448
G1 X134.416 Y88.338 E6.43166
G1 X134.664 Y88.326 E6.43768
G1 X134.934 Y88.353 E6.44427
G1 X135.200 Y88.420 E6.45091
G1 X135.450 Y88.526 E6.45751
G1 X135.684 Y88.669 E6.46415
G1 X135.892 Y88.844 E6.47075
G1 X136.073 Y89.049 E6.47737
G1 X136.219 Y89.276 E6.48393
G1 X136.330 Y89.520 E6.49044
G1 X136.899 Y91.083 E6.53079
G1 X136.969 Y91.331 E6.53703
G1 X137.003 Y91.586 E6.54328
G1 X137.001 Y91.845 E6.54957
G1 X136.962 Y92.104 E6.55592
G1 X136.887 Y92.353 E6.56221
G1 X136.767 Y92.604 E6.56895
G1 X136.634 Y92.806 E6.57483
G1 X136.461 Y93.002 E6.58117
G1 X136.264 Y93.171 E6.58746
G1 X136.046 Y93.308 E6.59371
G1 X135.812 Y93.414 E6.59996
G1 X134.897 Y93.746 E6.62356
G1 X135.304 Y94.340 E6.64100
G1 X135.776 Y95.158 E6.66393
G1 X136.184 Y96.013 E6.68690
G1 X136.525 Y96.899 E6.70993
G1 X136.795 Y97.807 E6.73289
G1 X136.994 Y98.735 E6.75593
G1 X137.120 Y99.673 E6.77888
G1 X137.173 Y100.621 E6.80192
G1 X137.152 Y101.567 E6.82488
G1 X137.057 Y102.512 E6.84792
G1 X136.890 Y103.444 E6.87088
G1 X136.650 Y104.363 E6.89391
G1 X136.340 Y105.257 E6.91688
G1 X135.962 Y106.124 E6.93981
G1 X135.553 Y106.892 E6.96091
G1 X136.893 Y110.941 E7.06437
G1 X136.958 Y111.201 E7.07089
G1 X136.984 Y111.470 E7.07744
G1 X136.969 Y111.743 E7.08407
G1 X136.914 Y112.010 E7.09067
G1 X136.819 Y112.266 E7.09731
G1 X136.688 Y112.505 E7.10390
G1 X136.522 Y112.722 E7.11055
G1 X136.326 Y112.911 E7.11714
G1 X136.103 Y113.070 E7.12378
G1 X135.861 Y113.193 E7.13037
G1 X135.601 Y113.279 E7.13702
G1 X135.331 Y113.325 E7.14366
G1 X134.995 Y113.325 E7.15182
G1 X134.789 Y113.295 E7.15687
G1 X134.526 Y113.220 E7.16348
G1 X134.279 Y113.107 E7.17008
G1 X134.050 Y112.958 E7.17672
G1 X133.847 Y112.777 E7.18332
G1 X133.672 Y112.567 E7.18995
G1 X133.532 Y112.336 E7.19650
G1 X133.428 Y112.088 E7.20301
G1 X132.793 Y110.169 E7.25203
G1 X132.242 Y110.612 E7.26919
G1 X131.451 Y111.151 E7.29241
G1 X131.066 Y111.380 E7.30326
G1 X130.614 Y111.629 E7.31579
G1 X129.744 Y112.038 E7.33910
G1 X129.058 Y112.304 E7.35694
G1 X127.921 Y112.645 E7.38575
G1 X127.042 Y112.828 E7.40751
G1 X126.024 Y112.957 E7.43242
G1 X125.063 Y113.000 E7.45575
G1 X124.101 Y112.967 E7.47910
G1 X122.938 Y112.823 E7.50753
G1 X122.202 Y112.674 E7.52575
G1 X121.276 Y112.416 E7.54906
G1 X120.371 Y112.086 E7.57242
G1 X119.497 Y111.685 E7.59575
G1 X118.892 Y111.357 E7.61245
G1 X117.860 Y110.687 E7.64228
G1 X117.182 Y110.154 E7.66321
G1 X116.925 Y110.247 E7.66985
M201 X2000 Y2000
M204 P2000 T2000
G1 X117.079 Y110.550 F9000.000
G1 X117.533 Y110.820 F9000.000
M201 X600 Y600
M204 P600 T600
G1 F2400
G1 X117.422 Y110.895 E7.67309
G1 X117.474 Y111.080 E7.67777
G1 X117.513 Y111.394 E7.68544
G1 X117.505 Y111.713 E7.69318
G1 X117.450 Y112.026 E7.70090
G1 X117.348 Y112.329 E7.70865
G1 X117.203 Y112.612 E7.71637
G1 X117.019 Y112.867 E7.72399
G1 X116.825 Y113.076 E7.73092
G1 X116.539 Y113.292 E7.73961
G1 X116.260 Y113.444 E7.74731
G1 X115.959 Y113.554 E7.75508
G1 X115.648 Y113.617 E7.76278
G1 X115.320 Y113.633 E7.77075
G1 X114.874 Y113.573 E7.78166
G1 X114.419 Y113.404 E7.79344
G1 X114.137 Y113.232 E7.80146
G1 X113.893 Y113.027 E7.80918
G1 X113.682 Y112.788 E7.81692
G1 X113.510 Y112.522 E7.82459
G1 X113.385 Y112.246 E7.83194
G1 X112.809 Y110.662 E7.87285
G1 X112.730 Y110.382 E7.87988
G1 X112.689 Y110.083 E7.88720
G1 X112.692 Y109.780 E7.89455
G1 X112.738 Y109.478 E7.90196
G1 X112.826 Y109.188 E7.90931
G1 X112.955 Y108.911 E7.91672
G1 X113.121 Y108.658 E7.92407
G1 X113.323 Y108.429 E7.93148
G1 X113.553 Y108.232 E7.93883
G1 X113.808 Y108.071 E7.94615
G1 X114.073 Y107.952 E7.95318
G1 X114.626 Y107.751 E7.96745
G1 X114.437 Y107.476 E7.97552
G1 X113.954 Y106.639 E7.99898
G1 X113.537 Y105.765 E8.02247
G1 X113.187 Y104.859 E8.04603
G1 X112.910 Y103.931 E8.06952
G1 X112.705 Y102.981 E8.09308
G1 X112.575 Y102.022 E8.11657
G1 X112.520 Y101.052 E8.14013
G1 X112.540 Y100.084 E8.16362
G1 X112.635 Y99.118 E8.18718
G1 X112.805 Y98.164 E8.21067
G1 X113.048 Y97.224 E8.23422
G1 X113.364 Y96.308 E8.25772
G1 X113.748 Y95.421 E8.28118
G1 X114.098 Y94.759 E8.29934
G1 X112.789 Y90.803 E8.40043
G1 X112.716 Y90.509 E8.40778
G1 X112.686 Y90.201 E8.41529
G1 X112.694 Y89.918 E8.42216
G1 X112.767 Y89.564 E8.43091
G1 X112.878 Y89.264 E8.43867
G1 X113.031 Y88.986 E8.44638
G1 X113.226 Y88.732 E8.45414
G1 X113.454 Y88.511 E8.46185
G1 X113.715 Y88.325 E8.46961
G1 X113.998 Y88.181 E8.47732
G1 X114.302 Y88.081 E8.48508
G1 X114.623 Y88.025 E8.49300
G1 X115.084 Y88.033 E8.50417
G1 X115.549 Y88.145 E8.51576
G1 X115.847 Y88.281 E8.52371
G1 X116.114 Y88.456 E8.53147
G1 X116.352 Y88.668 E8.53919
G1 X116.556 Y88.913 E8.54693
G1 X116.720 Y89.183 E8.55460
G1 X116.837 Y89.463 E8.56195
G1 X117.339 Y90.980 E8.60073
G1 X117.555 Y90.806 E8.60745
G1 X118.364 Y90.253 E8.63123
G1 X118.811 Y89.987 E8.64385
G1 X119.227 Y89.759 E8.65535
G1 X120.115 Y89.338 E8.67920
G1 X120.805 Y89.070 E8.69713
G1 X121.986 Y88.712 E8.72709
G1 X122.938 Y88.514 E8.75067
G1 X123.936 Y88.388 E8.77506
G1 X124.922 Y88.343 E8.79901
G1 X125.909 Y88.376 E8.82296
G1 X126.892 Y88.487 E8.84695
G1 X127.860 Y88.675 E8.87087
G1 X128.809 Y88.938 E8.89476
G1 X129.742 Y89.279 E8.91887
G1 X130.637 Y89.688 E8.94273
G1 X131.298 Y90.048 E8.96098
G1 X132.318 Y90.713 E8.99051
G1 X132.462 Y90.826 E8.99496
G1 X132.574 Y90.745 E8.99831
G1 X132.486 Y90.263 E9.01020
G1 X132.495 Y89.937 E9.01810
G1 X132.550 Y89.624 E9.02582
G1 X132.652 Y89.321 E9.03358
G1 X132.797 Y89.038 E9.04129
G1 X132.984 Y88.779 E9.04905
G1 X133.206 Y88.551 E9.05675
G1 X133.460 Y88.359 E9.06448
G1 X133.729 Y88.210 E9.07194
G1 X134.044 Y88.095 E9.08007
G1 X134.380 Y88.032 E9.08837
G1 X134.672 Y88.018 E9.09545
G1 X134.988 Y88.050 E9.10316
G1 X135.298 Y88.128 E9.11092
G1 X135.591 Y88.252 E9.11863
G1 X135.863 Y88.419 E9.12638
G1 X136.107 Y88.623 E9.13410
G1 X136.318 Y88.863 E9.14184
G1 X136.490 Y89.128 E9.14951
G1 X136.615 Y89.404 E9.15686
G1 X137.191 Y90.989 E9.19777
G1 X137.270 Y91.268 E9.20481
G1 X137.311 Y91.567 E9.21212
G1 X137.308 Y91.870 E9.21947
G1 X137.262 Y92.172 E9.22688
G1 X137.174 Y92.464 E9.23427
G1 X137.035 Y92.754 E9.24208
G1 X136.879 Y92.993 E9.24900
G1 X136.677 Y93.222 E9.25640
G1 X136.447 Y93.419 E9.26375
G1 X136.192 Y93.579 E9.27106
G1 X135.927 Y93.699 E9.27810
G1 X135.374 Y93.900 E9.29237
G1 X135.564 Y94.176 E9.30050
G1 X136.048 Y95.015 E9.32400
G1 X136.466 Y95.892 E9.34756
G1 X136.816 Y96.800 E9.37117
G1 X137.093 Y97.730 E9.39471
G1 X137.297 Y98.682 E9.41833
G1 X137.426 Y99.644 E9.44186
G1 X137.481 Y100.616 E9.46548
G1 X137.459 Y101.586 E9.48902
G1 X137.362 Y102.555 E9.51264
G1 X137.190 Y103.510 E9.53618
G1 X136.944 Y104.452 E9.55979
G1 X136.626 Y105.369 E9.58334
G1 X136.238 Y106.257 E9.60685
G1 X135.886 Y106.920 E9.62505
G1 X137.189 Y110.855 E9.72561
G1 X137.262 Y111.149 E9.73296
G1 X137.292 Y111.464 E9.74063
G1 X137.274 Y111.783 E9.74837
G1 X137.210 Y112.094 E9.75609
G1 X137.099 Y112.394 E9.76384
G1 X136.946 Y112.673 E9.77155
G1 X136.752 Y112.927 E9.77932
G1 X136.523 Y113.148 E9.78702
G1 X136.263 Y113.333 E9.79479
G1 X135.979 Y113.477 E9.80249
G1 X135.675 Y113.578 E9.81026
G1 X135.357 Y113.632 E9.81809
G1 X134.973 Y113.632 E9.82742
G1 X134.724 Y113.596 E9.83350
G1 X134.420 Y113.509 E9.84119
G1 X134.131 Y113.377 E9.84890
G1 X133.863 Y113.203 E9.85665
G1 X133.625 Y112.991 E9.86437
G1 X133.421 Y112.746 E9.87211
G1 X133.258 Y112.475 E9.87978
