; generated by Slic3r 1.3.1-dev on 2021-04-03 at 18:55:44

; external perimeters extrusion width = 0.35mm (3.68mm^3/s)
; perimeters extrusion width = 0.35mm (6.14mm^3/s)
; infill extrusion width = 0.40mm (10.71mm^3/s)
; solid infill extrusion width = 0.35mm (6.14mm^3/s)
; top infill extrusion width = 0.35mm (4.91mm^3/s)

M107
;Startcode FELIXprinters
;Pre-initialize
;================================
G90 ; absolute mode
M107 ; Turn off fan

; Heat up heaters
;================================
; First start heating up, this will prevent damage, if previous print is still on the bed and 
; stuck to the hot-end
G90 ; Absolute positioning
M82 ; Extruder in absolute
M104 S210
M140 S60
M109 S210
M190 S60

; Move up head a little before homing to prevent collision with remainders of filament and bed.
;================================
G91 ; Make coordinates relative
G1 Z1 F200; Move up head a little to prevent tw mm (from current position because it is all relative now) 
G90 ; Use absolute coordinates again

; Home printer
;================================
G28 ; Home all axes

; Purge extruder by drawing 2 lines
;================================
G92 E0			; reset extruder
G1 Z1.0 F3000		; move z down little to prevent scratching of surface
G1 X20.0 Y0.1 Z0.3 F3000.0	; move to start-line position
G1 X200.0 Y0.1 Z0.3 F1500.0 E15	; draw 1st line
G1 X200.0 Y1 Z0.3 F3000.0	; move to side a little
G1 X20.0 Y1 Z0.3 F1500.0 E30	; draw 2nd line
G1 E29.5 F3000		; retract filament 1.5mm
G92 E0					; reset extruder
; done purging
M117 Done purging

; Post-initialize
;================================
M106 ; Turn on fans
M117 FELIXprinting...
; Filament gcode

G21 ; set units to millimeters
G90 ; use absolute coordinates
M82 ; use absolute distances for extrusion
G92 E0
G92 E0
G1 E-5.00000 F4200.00000
G92 E0
G1 Z0.250 F9000.000
G1 X83.975 Y71.225 F9000.000
G1 Z0.200 F9000.000
G1 E5.00000 F4200.00000
M201 X600 Y600
M204 P600 T600
G1 F1440
G1 X83.975 Y65.925 E5.12856
G1 X92.075 Y65.925 E5.32505
G1 X92.075 Y72.256 E5.47862
G1 X92.096 Y72.547 E5.48570
G1 X92.148 Y72.811 E5.49222
G1 X92.239 Y73.080 E5.49910
G1 X92.368 Y73.341 E5.50617
G1 X92.521 Y73.570 E5.51285
G1 X92.707 Y73.784 E5.51973
G1 X92.930 Y73.979 E5.52690
G1 X93.155 Y74.130 E5.53348
G1 X93.420 Y74.261 E5.54065
G1 X93.689 Y74.352 E5.54754
G1 X93.953 Y74.404 E5.55406
G1 X94.244 Y74.425 E5.56114
G1 X155.756 Y74.425 E7.05324
G1 X156.035 Y74.406 E7.06003
G1 X156.311 Y74.352 E7.06686
G1 X156.591 Y74.256 E7.07404
G1 X156.845 Y74.129 E7.08091
G1 X157.070 Y73.979 E7.08748
G1 X157.284 Y73.793 E7.09436
G1 X157.479 Y73.570 E7.10153
G1 X157.636 Y73.334 E7.10842
G1 X157.761 Y73.079 E7.11529
G1 X157.852 Y72.811 E7.12217
G1 X157.906 Y72.535 E7.12899
G1 X157.925 Y72.256 E7.13578
G1 X157.925 Y65.925 E7.28935
G1 X166.025 Y65.925 E7.48583
G1 X166.025 Y71.225 E7.61439
G1 X169.825 Y71.225 E7.70657
G1 X169.825 Y78.575 E7.88486
G1 X158.575 Y78.575 E8.15775
G1 X158.575 Y79.075 E8.16988
G1 X91.425 Y79.075 E9.79874
G1 X91.425 Y78.575 E9.81087
G1 X80.175 Y78.575 E10.08376
G1 X80.175 Y71.225 E10.26205
G1 X83.922 Y71.225 E10.35295
M201 X2000 Y2000
M204 P2000 T2000
G1 X84.302 Y71.100 F9000.000
G1 X84.282 Y71.532 F9000.000
M201 X600 Y600
M204 P600 T600
G1 F2400
G1 X84.282 Y66.232 E10.48152
G1 X91.768 Y66.232 E10.66310
G1 X91.768 Y72.267 E10.80950
G1 X91.791 Y72.588 E10.81731
G1 X91.851 Y72.891 E10.82478
G1 X91.955 Y73.197 E10.83264
G1 X92.102 Y73.495 E10.84068
G1 X92.277 Y73.757 E10.84832
G1 X92.489 Y74.001 E10.85618
G1 X92.742 Y74.223 E10.86434
G1 X93.001 Y74.396 E10.87189
G1 X93.302 Y74.545 E10.88005
G1 X93.609 Y74.649 E10.88791
G1 X93.912 Y74.709 E10.89538
G1 X94.233 Y74.732 E10.90319
G1 X155.766 Y74.732 E12.39581
G1 X156.075 Y74.711 E12.40333
G1 X156.391 Y74.649 E12.41115
G1 X156.710 Y74.539 E12.41932
G1 X156.999 Y74.396 E12.42715
G1 X157.257 Y74.223 E12.43468
G1 X157.501 Y74.011 E12.44253
G1 X157.723 Y73.757 E12.45070
G1 X157.903 Y73.487 E12.45857
G1 X158.045 Y73.197 E12.46641
G1 X158.149 Y72.890 E12.47426
G1 X158.211 Y72.575 E12.48205
G1 X158.232 Y72.266 E12.48957
G1 X158.232 Y66.232 E12.63594
G1 X165.718 Y66.232 E12.81752
G1 X165.718 Y71.532 E12.94608
G1 X169.518 Y71.532 E13.03826
G1 X169.518 Y78.268 E13.20165
G1 X158.268 Y78.268 E13.47455
G1 X158.268 Y78.768 E13.48667
G1 X91.732 Y78.768 E15.10064
G1 X91.732 Y78.268 E15.11277
G1 X80.482 Y78.268 E15.38566
G1 X80.482 Y71.532 E15.54905
G1 X84.230 Y71.532 E15.63996
M201 X2000 Y2000
M204 P2000 T2000
G1 E10.63996 F4200.00000
G92 E0
G1 Z0.450 F9000.000
G1 X86.715 Y70.367 F9000.000
G1 Z0.200 F9000.000
G1 E5.00000 F4200.00000
M201 X600 Y600
M204 P600 T600
G1 F960
G1 X86.638 Y70.170 E5.00515
G1 X86.591 Y69.964 E5.01026
G1 X86.574 Y69.750 E5.01547
G1 X86.591 Y69.530 E5.02082
G1 X86.696 Y69.173 E5.02985
G1 X86.821 Y68.949 E5.03606
G1 X86.954 Y68.782 E5.04124
G1 X87.117 Y68.631 E5.04664
G1 X87.284 Y68.518 E5.05154
G1 X87.476 Y68.424 E5.05672
G1 X87.678 Y68.362 E5.06186
G1 X87.899 Y68.328 E5.06727
G1 X88.110 Y68.329 E5.07240
G1 X88.313 Y68.360 E5.07735
G1 X88.523 Y68.424 E5.08270
G1 X88.716 Y68.518 E5.08789
G1 X88.883 Y68.631 E5.09279
G1 X89.040 Y68.776 E5.09796
G1 X89.179 Y68.949 E5.10335
G1 X89.304 Y69.173 E5.10958
G1 X89.409 Y69.530 E5.11861
G1 X89.426 Y69.750 E5.12395
G1 X89.409 Y69.965 E5.12918
G1 X89.359 Y70.179 E5.13451
G1 X89.285 Y70.367 E5.13942
G1 X89.179 Y70.552 E5.14459
G1 X89.047 Y70.717 E5.14972
G1 X88.890 Y70.863 E5.15491
G1 X88.707 Y70.987 E5.16027
G1 X88.515 Y71.079 E5.16545
G1 X88.322 Y71.138 E5.17035
G1 X88.110 Y71.171 E5.17553
G1 X87.890 Y71.171 E5.18089
G1 X87.678 Y71.138 E5.18608
G1 X87.476 Y71.076 E5.19120
G1 X87.292 Y70.987 E5.19616
G1 X87.110 Y70.863 E5.20151
G1 X86.953 Y70.717 E5.20669
G1 X86.827 Y70.559 E5.21160
G1 X86.742 Y70.413 E5.21572
M201 X2000 Y2000
M204 P2000 T2000
G1 X86.715 Y70.367 F9000.000
G1 X86.450 Y70.522 F9000.000
M201 X600 Y600
M204 P600 T600
G1 F960
G1 X86.343 Y70.260 E5.22256
G1 X86.287 Y70.010 E5.22878
G1 X86.266 Y69.750 E5.23512
G1 X86.288 Y69.475 E5.24182
G1 X86.411 Y69.054 E5.25246
G1 X86.565 Y68.778 E5.26012
G1 X86.728 Y68.573 E5.26648
G1 X86.925 Y68.390 E5.27300
G1 X87.130 Y68.251 E5.27900
G1 X87.363 Y68.138 E5.28528
G1 X87.610 Y68.061 E5.29154
G1 X87.877 Y68.021 E5.29809
G1 X88.134 Y68.022 E5.30434
G1 X88.381 Y68.059 E5.31039
G1 X88.636 Y68.138 E5.31687
G1 X88.870 Y68.251 E5.32317
G1 X89.074 Y68.390 E5.32917
G1 X89.264 Y68.565 E5.33544
G1 X89.435 Y68.777 E5.34202
G1 X89.589 Y69.054 E5.34971
G1 X89.712 Y69.475 E5.36035
G1 X89.734 Y69.750 E5.36706
G1 X89.713 Y70.012 E5.37343
G1 X89.653 Y70.270 E5.37986
G1 X89.562 Y70.500 E5.38587
G1 X89.433 Y70.725 E5.39214
G1 X89.273 Y70.926 E5.39840
G1 X89.082 Y71.104 E5.40471
G1 X88.860 Y71.254 E5.41122
G1 X88.626 Y71.366 E5.41750
G1 X88.391 Y71.438 E5.42348
G1 X88.134 Y71.478 E5.42978
G1 X87.866 Y71.478 E5.43628
G1 X87.609 Y71.438 E5.44260
G1 X87.364 Y71.362 E5.44883
G1 X87.139 Y71.254 E5.45488
G1 X86.918 Y71.104 E5.46135
G1 X86.728 Y70.927 E5.46766
G1 X86.573 Y70.733 E5.47366
G1 X86.476 Y70.567 E5.47833
M201 X2000 Y2000
M204 P2000 T2000
G1 E0.47833 F4200.00000
G92 E0
G1 Z0.450 F9000.000
G1 X160.574 Y69.750 F9000.000
G1 Z0.200 F9000.000
G1 E5.00000 F4200.00000
M201 X600 Y600
M204 P600 T600
G1 F960
G1 X160.591 Y69.530 E5.00535
G1 X160.696 Y69.173 E5.01438
G1 X160.821 Y68.949 E5.02059
G1 X160.954 Y68.782 E5.02577
G1 X161.117 Y68.631 E5.03116
G1 X161.284 Y68.518 E5.03607
G1 X161.476 Y68.424 E5.04124
G1 X161.678 Y68.362 E5.04638
G1 X161.899 Y68.328 E5.05179
G1 X162.110 Y68.329 E5.05692
G1 X162.313 Y68.360 E5.06188
G1 X162.523 Y68.424 E5.06723
G1 X162.716 Y68.518 E5.07241
G1 X162.883 Y68.631 E5.07731
G1 X163.040 Y68.776 E5.08248
G1 X163.179 Y68.949 E5.08788
G1 X163.304 Y69.173 E5.09410
G1 X163.409 Y69.530 E5.10313
G1 X163.426 Y69.750 E5.10848
G1 X163.409 Y69.965 E5.11371
G1 X163.359 Y70.179 E5.11903
G1 X163.285 Y70.367 E5.12394
G1 X163.179 Y70.552 E5.12911
G1 X163.047 Y70.717 E5.13425
G1 X162.890 Y70.863 E5.13944
G1 X162.707 Y70.987 E5.14480
G1 X162.515 Y71.079 E5.14997
G1 X162.322 Y71.138 E5.15487
G1 X162.110 Y71.171 E5.16006
G1 X161.890 Y71.171 E5.16541
G1 X161.678 Y71.138 E5.17060
G1 X161.476 Y71.076 E5.17573
G1 X161.292 Y70.987 E5.18068
G1 X161.110 Y70.863 E5.18603
G1 X160.953 Y70.717 E5.19122
G1 X160.827 Y70.559 E5.19613
G1 X160.715 Y70.367 E5.20151
G1 X160.638 Y70.170 E5.20667
G1 X160.591 Y69.964 E5.21177
G1 X160.579 Y69.802 E5.21572
M201 X2000 Y2000
M204 P2000 T2000
G1 X160.574 Y69.750 F9000.000
G1 X160.268 Y69.774 F9000.000
M201 X600 Y600
M204 P600 T600
G1 F960
G1 X160.288 Y69.475 E5.22299
G1 X160.411 Y69.054 E5.23363
G1 X160.565 Y68.778 E5.24129
G1 X160.728 Y68.573 E5.24765
G1 X160.925 Y68.390 E5.25416
G1 X161.130 Y68.251 E5.26017
G1 X161.363 Y68.138 E5.26645
G1 X161.610 Y68.061 E5.27271
G1 X161.877 Y68.021 E5.27926
G1 X162.134 Y68.022 E5.28551
G1 X162.381 Y68.059 E5.29156
G1 X162.636 Y68.138 E5.29804
G1 X162.870 Y68.251 E5.30434
G1 X163.074 Y68.390 E5.31033
G1 X163.264 Y68.565 E5.31660
G1 X163.435 Y68.777 E5.32319
G1 X163.589 Y69.054 E5.33088
G1 X163.712 Y69.475 E5.34152
G1 X163.734 Y69.750 E5.34822
G1 X163.713 Y70.012 E5.35460
G1 X163.653 Y70.270 E5.36103
G1 X163.562 Y70.500 E5.36703
G1 X163.433 Y70.725 E5.37331
G1 X163.273 Y70.926 E5.37956
G1 X163.082 Y71.104 E5.38588
G1 X162.860 Y71.254 E5.39238
G1 X162.626 Y71.366 E5.39866
G1 X162.391 Y71.438 E5.40465
G1 X162.134 Y71.478 E5.41095
G1 X161.866 Y71.478 E5.41745
G1 X161.609 Y71.438 E5.42376
G1 X161.364 Y71.362 E5.42999
G1 X161.139 Y71.254 E5.43604
G1 X160.918 Y71.104 E5.44252
G1 X160.728 Y70.927 E5.44883
G1 X160.573 Y70.733 E5.45483
G1 X160.438 Y70.501 E5.46134
G1 X160.343 Y70.260 E5.46763
G1 X160.287 Y70.010 E5.47384
G1 X160.272 Y69.826 E5.47833
M201 X2000 Y2000
M204 P2000 T2000
G1 X158.507 Y69.978 F9000.000
M201 X600 Y600
M204 P600 T600
G1 F2400
G1 X158.507 Y70.413 E5.48888
G1 X160.336 Y68.583 E5.55168
G1 X160.159 Y68.902 E5.56053
G1 X160.037 Y69.317 E5.57103
G1 X158.507 Y70.847 E5.62357
G1 X158.507 Y71.282 E5.63412
G1 X159.997 Y69.791 E5.68528
G1 X160.015 Y70.024 E5.69094
G1 X160.049 Y70.174 E5.69467
G1 X158.507 Y71.716 E5.74762
G1 X158.507 Y72.151 E5.75817
G1 X160.154 Y70.503 E5.81473
G1 X160.302 Y70.790 E5.82256
G1 X158.487 Y72.605 E5.88488
G1 X158.414 Y73.002 E5.89468
G1 X158.357 Y73.169 E5.89896
G1 X160.485 Y71.042 E5.97201
G1 X160.702 Y71.259 E5.97946
G1 X153.468 Y78.493 E6.22780
G1 X153.902 Y78.493 E6.23835
G1 X160.952 Y71.444 E6.48036
G1 X161.237 Y71.594 E6.48817
G1 X154.337 Y78.493 E6.72504
G1 X154.771 Y78.493 E6.73559
G1 X161.562 Y71.703 E6.96870
G1 X161.947 Y71.753 E6.97812
G1 X155.206 Y78.493 E7.20953
G1 X155.641 Y78.493 E7.22008
G1 X162.416 Y71.718 E7.45269
G1 X162.771 Y71.620 E7.46161
G1 X163.046 Y71.489 E7.46900
G1 X163.151 Y71.418 E7.47207
G1 X156.075 Y78.493 E7.71496
M201 X2000 Y2000
M204 P2000 T2000
G1 E2.71496 F4200.00000
G92 E0
G1 Z0.450 F9000.000
G1 X153.033 Y78.493 F9000.000
G1 Z0.200 F9000.000
G1 E5.00000 F4200.00000
M201 X600 Y600
M204 P600 T600
G1 F2400
G1 X156.670 Y74.856 E5.12486
G1 X156.504 Y74.913 E5.12912
G1 X156.105 Y74.987 E5.13897
G1 X152.599 Y78.493 E5.25934
G1 X152.164 Y78.493 E5.26989
G1 X155.651 Y75.007 E5.38959
G1 X155.216 Y75.007 E5.40014
G1 X151.729 Y78.493 E5.51984
G1 X151.295 Y78.493 E5.53039
G1 X154.782 Y75.007 E5.65009
G1 X154.347 Y75.007 E5.66064
G1 X150.860 Y78.493 E5.78034
G1 X150.426 Y78.493 E5.79089
G1 X153.913 Y75.007 E5.91059
G1 X153.478 Y75.007 E5.92114
G1 X149.991 Y78.493 E6.04084
G1 X149.556 Y78.493 E6.05139
G1 X153.043 Y75.007 E6.17109
G1 X152.609 Y75.007 E6.18164
G1 X149.122 Y78.493 E6.30134
G1 X148.687 Y78.493 E6.31189
G1 X152.174 Y75.007 E6.43159
G1 X151.740 Y75.007 E6.44214
G1 X148.253 Y78.493 E6.56184
G1 X147.818 Y78.493 E6.57239
G1 X151.305 Y75.007 E6.69209
G1 X150.870 Y75.007 E6.70264
G1 X147.384 Y78.493 E6.82234
G1 X146.949 Y78.493 E6.83289
G1 X150.436 Y75.007 E6.95259
G1 X150.001 Y75.007 E6.96314
G1 X146.514 Y78.493 E7.08284
G1 X146.080 Y78.493 E7.09339
G1 X149.567 Y75.007 E7.21309
G1 X149.132 Y75.007 E7.22364
G1 X145.645 Y78.493 E7.34334
G1 X145.211 Y78.493 E7.35389
G1 X148.698 Y75.007 E7.47359
G1 X148.263 Y75.007 E7.48414
G1 X144.776 Y78.493 E7.60384
G1 X144.341 Y78.493 E7.61439
G1 X147.828 Y75.007 E7.73409
G1 X147.394 Y75.007 E7.74464
G1 X143.907 Y78.493 E7.86434
G1 X143.472 Y78.493 E7.87489
G1 X146.959 Y75.007 E7.99459
G1 X146.525 Y75.007 E8.00514
G1 X143.038 Y78.493 E8.12484
G1 X142.603 Y78.493 E8.13539
G1 X146.090 Y75.007 E8.25509
G1 X145.655 Y75.007 E8.26564
G1 X142.169 Y78.493 E8.38534
G1 X141.734 Y78.493 E8.39589
G1 X145.221 Y75.007 E8.51559
G1 X144.786 Y75.007 E8.52614
G1 X141.299 Y78.493 E8.64584
G1 X140.865 Y78.493 E8.65639
G1 X144.352 Y75.007 E8.77609
G1 X143.917 Y75.007 E8.78664
G1 X140.430 Y78.493 E8.90634
G1 X139.996 Y78.493 E8.91689
G1 X143.482 Y75.007 E9.03659
G1 X143.048 Y75.007 E9.04714
G1 X139.561 Y78.493 E9.16684
G1 X139.126 Y78.493 E9.17739
G1 X142.613 Y75.007 E9.29709
G1 X142.179 Y75.007 E9.30764
G1 X138.692 Y78.493 E9.42734
G1 X138.257 Y78.493 E9.43789
G1 X141.744 Y75.007 E9.55759
G1 X141.310 Y75.007 E9.56814
G1 X137.823 Y78.493 E9.68784
G1 X137.388 Y78.493 E9.69839
G1 X140.875 Y75.007 E9.81809
G1 X140.440 Y75.007 E9.82864
G1 X136.954 Y78.493 E9.94834
G1 X136.519 Y78.493 E9.95889
G1 X140.006 Y75.007 E10.07859
G1 X139.571 Y75.007 E10.08914
G1 X136.084 Y78.493 E10.20884
G1 X135.650 Y78.493 E10.21939
G1 X139.137 Y75.007 E10.33909
G1 X138.702 Y75.007 E10.34964
G1 X135.215 Y78.493 E10.46934
G1 X134.781 Y78.493 E10.47989
G1 X138.267 Y75.007 E10.59959
G1 X137.833 Y75.007 E10.61014
G1 X134.346 Y78.493 E10.72984
G1 X133.911 Y78.493 E10.74039
G1 X137.398 Y75.007 E10.86009
G1 X136.964 Y75.007 E10.87064
G1 X133.477 Y78.493 E10.99034
G1 X133.042 Y78.493 E11.00089
G1 X136.529 Y75.007 E11.12059
G1 X136.095 Y75.007 E11.13114
G1 X132.608 Y78.493 E11.25084
G1 X132.173 Y78.493 E11.26139
G1 X135.660 Y75.007 E11.38109
G1 X135.225 Y75.007 E11.39164
G1 X131.739 Y78.493 E11.51134
G1 X131.304 Y78.493 E11.52189
G1 X134.791 Y75.007 E11.64159
G1 X134.356 Y75.007 E11.65214
G1 X130.869 Y78.493 E11.77184
G1 X130.435 Y78.493 E11.78239
G1 X133.922 Y75.007 E11.90209
G1 X133.487 Y75.007 E11.91264
G1 X130.000 Y78.493 E12.03234
G1 X129.566 Y78.493 E12.04289
G1 X133.052 Y75.007 E12.16259
G1 X132.618 Y75.007 E12.17313
G1 X129.131 Y78.493 E12.29284
G1 X128.696 Y78.493 E12.30338
G1 X132.183 Y75.007 E12.42309
G1 X131.749 Y75.007 E12.43363
G1 X128.262 Y78.493 E12.55334
G1 X127.827 Y78.493 E12.56388
G1 X131.314 Y75.007 E12.68359
G1 X130.880 Y75.007 E12.69413
G1 X127.393 Y78.493 E12.81384
G1 X126.958 Y78.493 E12.82438
G1 X130.445 Y75.007 E12.94409
G1 X130.010 Y75.007 E12.95463
G1 X126.524 Y78.493 E13.07434
G1 X126.089 Y78.493 E13.08488
G1 X129.576 Y75.007 E13.20459
G1 X129.141 Y75.007 E13.21513
G1 X125.654 Y78.493 E13.33483
G1 X125.220 Y78.493 E13.34538
G1 X128.707 Y75.007 E13.46508
G1 X128.272 Y75.007 E13.47563
G1 X124.785 Y78.493 E13.59533
G1 X124.351 Y78.493 E13.60588
G1 X127.837 Y75.007 E13.72558
G1 X127.403 Y75.007 E13.73613
G1 X123.916 Y78.493 E13.85583
G1 X123.481 Y78.493 E13.86638
G1 X126.968 Y75.007 E13.98608
G1 X126.534 Y75.007 E13.99663
G1 X123.047 Y78.493 E14.11633
G1 X122.612 Y78.493 E14.12688
G1 X126.099 Y75.007 E14.24658
G1 X125.665 Y75.007 E14.25713
G1 X122.178 Y78.493 E14.37683
G1 X121.743 Y78.493 E14.38738
G1 X125.230 Y75.007 E14.50708
G1 X124.795 Y75.007 E14.51763
G1 X121.309 Y78.493 E14.63733
G1 X120.874 Y78.493 E14.64788
G1 X124.361 Y75.007 E14.76758
G1 X123.926 Y75.007 E14.77813
G1 X120.439 Y78.493 E14.89783
G1 X120.005 Y78.493 E14.90838
G1 X123.492 Y75.007 E15.02808
G1 X123.057 Y75.007 E15.03863
G1 X119.570 Y78.493 E15.15833
G1 X119.136 Y78.493 E15.16888
G1 X122.622 Y75.007 E15.28858
G1 X122.188 Y75.007 E15.29913
G1 X118.701 Y78.493 E15.41883
G1 X118.266 Y78.493 E15.42938
G1 X121.753 Y75.007 E15.54908
G1 X121.319 Y75.007 E15.55963
G1 X117.832 Y78.493 E15.67933
G1 X117.397 Y78.493 E15.68988
G1 X120.884 Y75.007 E15.80958
G1 X120.450 Y75.007 E15.82013
G1 X116.963 Y78.493 E15.93983
G1 X116.528 Y78.493 E15.95038
G1 X120.015 Y75.007 E16.07008
G1 X119.580 Y75.007 E16.08063
G1 X116.094 Y78.493 E16.20033
G1 X115.659 Y78.493 E16.21088
