; generated by Slic3r 1.3.1-dev on 2021-04-07 at 18:47:52

; external perimeters extrusion width = 0.35mm (3.68mm^3/s)
; perimeters extrusion width = 0.35mm (6.14mm^3/s)
; infill extrusion width = 0.40mm (10.71mm^3/s)
; solid infill extrusion width = 0.35mm (6.14mm^3/s)
; top infill extrusion width = 0.35mm (4.91mm^3/s)

M107
;Startcode FELIXprinters
;Pre-initialize
;================================
G90 ; absolute mode
M107 ; Turn off fan

; Heat up heaters
;================================
; First start heating up, this will prevent damage, if previous print is still on the bed and 
; stuck to the hot-end
G90 ; Absolute positioning
M82 ; Extruder in absolute
M104 S210
M140 S60
M109 S210
M190 S60

; Move up head a little before homing to prevent collision with remainders of filament and bed.
;================================
G91 ; Make coordinates relative
G1 Z1 F200; Move up head a little to prevent tw mm (from current position because it is all relative now) 
G90 ; Use absolute coordinates again

; Home printer
;================================
G28 ; Home all axes

; Purge extruder by drawing 2 lines
;================================
G92 E0			; reset extruder
G1 Z1.0 F3000		; move z down little to prevent scratching of surface
G1 X20.0 Y0.1 Z0.3 F3000.0	; move to start-line position
G1 X200.0 Y0.1 Z0.3 F1500.0 E15	; draw 1st line
G1 X200.0 Y1 Z0.3 F3000.0	; move to side a little
G1 X20.0 Y1 Z0.3 F1500.0 E30	; draw 2nd line
G1 E29.5 F3000		; retract filament 1.5mm
G92 E0					; reset extruder
; done purging
M117 Done purging

; Post-initialize
;================================
M106 ; Turn on fans
M117 FELIXprinting...
; Filament gcode

G21 ; set units to millimeters
G90 ; use absolute coordinates
M82 ; use absolute distances for extrusion
G92 E0
G92 E0
G1 E-5.00000 F4200.00000
G92 E0
G1 Z0.250 F9000.000
G1 X150.925 Y144.675 F9000.000
G1 Z0.200 F9000.000
G1 E5.00000 F4200.00000
M201 X600 Y600
M204 P600 T600
G1 F960
G1 X158.325 Y144.675 E5.17950
G1 X158.325 Y152.325 E5.36507
G1 X150.925 Y152.325 E5.54457
G1 X150.925 Y144.727 E5.72886
M201 X2000 Y2000
M204 P2000 T2000
G1 X151.263 Y144.767 F9000.000
G1 X151.232 Y144.982 F9000.000
M201 X600 Y600
M204 P600 T600
G1 F960
G1 X158.018 Y144.982 E5.89347
G1 X158.018 Y152.018 E6.06414
G1 X151.232 Y152.018 E6.22874
G1 X151.232 Y145.035 E6.39814
M201 X2000 Y2000
M204 P2000 T2000
G1 X151.572 Y145.257 F9000.000
M201 X600 Y600
M204 P600 T600
G1 F2400
G1 X151.507 Y145.322 E6.40046
G1 X151.507 Y145.772 E6.41176
G1 X152.022 Y145.257 E6.43006
G1 X152.471 Y145.257 E6.44136
G1 X151.507 Y146.221 E6.47563
G1 X151.507 Y146.671 E6.48693
G1 X152.921 Y145.257 E6.53719
G1 X153.371 Y145.257 E6.54849
G1 X151.507 Y147.121 E6.61472
G1 X151.507 Y147.571 E6.62602
G1 X153.821 Y145.257 E6.70823
G1 X154.270 Y145.257 E6.71953
G1 X151.507 Y148.020 E6.81772
G1 X151.507 Y148.470 E6.82902
G1 X154.720 Y145.257 E6.94319
G1 X155.170 Y145.257 E6.95449
G1 X151.507 Y148.920 E7.08464
G1 X151.507 Y149.370 E7.09594
G1 X155.620 Y145.257 E7.24207
G1 X156.069 Y145.257 E7.25337
G1 X151.507 Y149.819 E7.41547
G1 X151.507 Y150.269 E7.42677
G1 X156.519 Y145.257 E7.60486
G1 X156.969 Y145.257 E7.61616
G1 X151.507 Y150.719 E7.81022
G1 X151.507 Y151.169 E7.82152
G1 X157.419 Y145.257 E8.03156
G1 X157.743 Y145.257 E8.03972
G1 X157.743 Y145.382 E8.04286
G1 X151.507 Y151.618 E8.26444
G1 X151.507 Y151.743 E8.26758
G1 X151.831 Y151.743 E8.27574
G1 X157.743 Y145.831 E8.48578
G1 X157.743 Y146.281 E8.49708
G1 X152.281 Y151.743 E8.69114
G1 X152.731 Y151.743 E8.70244
G1 X157.743 Y146.731 E8.88053
G1 X157.743 Y147.181 E8.89182
G1 X153.181 Y151.743 E9.05393
G1 X153.630 Y151.743 E9.06523
G1 X157.743 Y147.630 E9.21136
G1 X157.743 Y148.080 E9.22265
G1 X154.080 Y151.743 E9.35280
G1 X154.530 Y151.743 E9.36410
G1 X157.743 Y148.530 E9.47827
G1 X157.743 Y148.980 E9.48957
G1 X154.980 Y151.743 E9.58776
G1 X155.429 Y151.743 E9.59906
G1 X157.743 Y149.429 E9.68127
G1 X157.743 Y149.879 E9.69257
G1 X155.879 Y151.743 E9.75881
G1 X156.329 Y151.743 E9.77010
G1 X157.743 Y150.329 E9.82036
G1 X157.743 Y150.779 E9.83166
G1 X156.779 Y151.743 E9.86593
G1 X157.228 Y151.743 E9.87723
G1 X157.743 Y151.228 E9.89553
G1 X157.743 Y151.678 E9.90683
G1 X157.678 Y151.743 E9.90915
M201 X2000 Y2000
M204 P2000 T2000
G1 E4.90915 F4200.00000
G92 E0
G1 Z0.450 F9000.000
G1 X149.575 Y144.675 F9000.000
G1 Z0.200 F9000.000
G1 E5.00000 F4200.00000
M201 X600 Y600
M204 P600 T600
G1 F960
G1 X149.575 Y149.325 E5.11280
G1 X143.925 Y149.325 E5.24985
G1 X143.925 Y144.675 E5.36264
G1 X149.523 Y144.675 E5.49842
M201 X2000 Y2000
M204 P2000 T2000
G1 X149.474 Y145.010 F9000.000
G1 X149.268 Y144.982 F9000.000
M201 X600 Y600
M204 P600 T600
G1 F960
G1 X149.268 Y149.018 E5.59632
G1 X144.232 Y149.018 E5.71848
G1 X144.232 Y144.982 E5.81637
G1 X149.215 Y144.982 E5.93725
M201 X2000 Y2000
M204 P2000 T2000
G1 E0.93725 F4200.00000
G92 E0
G1 Z0.450 F9000.000
G1 X148.928 Y148.743 F9000.000
G1 Z0.200 F9000.000
G1 E5.00000 F4200.00000
M201 X600 Y600
M204 P600 T600
G1 F2400
G1 X148.993 Y148.678 E5.00225
G1 X148.993 Y148.242 E5.01285
G1 X148.492 Y148.743 E5.03010
G1 X148.057 Y148.743 E5.04070
G1 X148.993 Y147.807 E5.07294
G1 X148.993 Y147.371 E5.08355
G1 X147.621 Y148.743 E5.13079
G1 X147.185 Y148.743 E5.14139
G1 X148.993 Y146.935 E5.20363
G1 X148.993 Y146.499 E5.21424
G1 X146.749 Y148.743 E5.29147
G1 X146.314 Y148.743 E5.30208
G1 X148.993 Y146.064 E5.39431
G1 X148.993 Y145.628 E5.40491
G1 X145.878 Y148.743 E5.51215
G1 X145.442 Y148.743 E5.52275
G1 X148.929 Y145.257 E5.64277
G1 X148.493 Y145.257 E5.65337
G1 X145.007 Y148.743 E5.77339
G1 X144.571 Y148.743 E5.78399
G1 X148.058 Y145.257 E5.90401
G1 X147.622 Y145.257 E5.91461
G1 X144.507 Y148.372 E6.02185
G1 X144.507 Y147.936 E6.03245
G1 X147.186 Y145.257 E6.12469
G1 X146.751 Y145.257 E6.13529
G1 X144.507 Y147.501 E6.21253
G1 X144.507 Y147.065 E6.22313
G1 X146.315 Y145.257 E6.28537
G1 X145.879 Y145.257 E6.29597
G1 X144.507 Y146.629 E6.34322
G1 X144.507 Y146.193 E6.35382
G1 X145.443 Y145.257 E6.38606
G1 X145.008 Y145.257 E6.39667
G1 X144.507 Y145.758 E6.41391
G1 X144.507 Y145.322 E6.42452
G1 X144.572 Y145.257 E6.42677
M201 X2000 Y2000
M204 P2000 T2000
G1 E1.42677 F4200.00000
G92 E0
G1 Z0.450 F9000.000
G1 X142.575 Y144.675 F9000.000
G1 Z0.200 F9000.000
G1 E5.00000 F4200.00000
M201 X600 Y600
M204 P600 T600
G1 F960
G1 X142.575 Y149.325 E5.11280
G1 X136.925 Y149.325 E5.24985
G1 X136.925 Y144.675 E5.36264
G1 X142.523 Y144.675 E5.49842
M201 X2000 Y2000
M204 P2000 T2000
G1 X142.474 Y145.010 F9000.000
G1 X142.268 Y144.982 F9000.000
M201 X600 Y600
M204 P600 T600
G1 F960
G1 X142.268 Y149.018 E5.59632
G1 X137.232 Y149.018 E5.71848
G1 X137.232 Y144.982 E5.81637
G1 X142.215 Y144.982 E5.93725
M201 X2000 Y2000
M204 P2000 T2000
G1 E0.93725 F4200.00000
G92 E0
G1 Z0.450 F9000.000
G1 X141.928 Y148.743 F9000.000
G1 Z0.200 F9000.000
G1 E5.00000 F4200.00000
M201 X600 Y600
M204 P600 T600
G1 F2400
G1 X141.993 Y148.678 E5.00225
G1 X141.993 Y148.242 E5.01285
G1 X141.492 Y148.743 E5.03010
G1 X141.057 Y148.743 E5.04070
G1 X141.993 Y147.807 E5.07294
G1 X141.993 Y147.371 E5.08355
G1 X140.621 Y148.743 E5.13079
G1 X140.185 Y148.743 E5.14139
G1 X141.993 Y146.935 E5.20363
G1 X141.993 Y146.499 E5.21424
G1 X139.749 Y148.743 E5.29147
G1 X139.314 Y148.743 E5.30208
G1 X141.993 Y146.064 E5.39431
G1 X141.993 Y145.628 E5.40491
G1 X138.878 Y148.743 E5.51215
G1 X138.442 Y148.743 E5.52275
G1 X141.929 Y145.257 E5.64277
G1 X141.493 Y145.257 E5.65337
G1 X138.007 Y148.743 E5.77339
G1 X137.571 Y148.743 E5.78399
G1 X141.058 Y145.257 E5.90401
G1 X140.622 Y145.257 E5.91461
G1 X137.507 Y148.372 E6.02185
G1 X137.507 Y147.936 E6.03245
G1 X140.186 Y145.257 E6.12469
G1 X139.751 Y145.257 E6.13529
G1 X137.507 Y147.501 E6.21253
G1 X137.507 Y147.065 E6.22313
G1 X139.315 Y145.257 E6.28537
G1 X138.879 Y145.257 E6.29597
G1 X137.507 Y146.629 E6.34322
G1 X137.507 Y146.193 E6.35382
G1 X138.443 Y145.257 E6.38606
G1 X138.008 Y145.257 E6.39667
G1 X137.507 Y145.758 E6.41391
G1 X137.507 Y145.322 E6.42452
G1 X137.572 Y145.257 E6.42677
M201 X2000 Y2000
M204 P2000 T2000
G1 E1.42677 F4200.00000
G92 E0
G1 Z0.450 F9000.000
G1 X135.575 Y144.675 F9000.000
G1 Z0.200 F9000.000
G1 E5.00000 F4200.00000
M201 X600 Y600
M204 P600 T600
G1 F960
G1 X135.575 Y149.325 E5.11280
G1 X129.925 Y149.325 E5.24985
G1 X129.925 Y144.675 E5.36264
G1 X135.523 Y144.675 E5.49842
M201 X2000 Y2000
M204 P2000 T2000
G1 X135.474 Y145.010 F9000.000
G1 X135.268 Y144.982 F9000.000
M201 X600 Y600
M204 P600 T600
G1 F960
G1 X135.268 Y149.018 E5.59632
G1 X130.232 Y149.018 E5.71848
G1 X130.232 Y144.982 E5.81637
G1 X135.215 Y144.982 E5.93725
M201 X2000 Y2000
M204 P2000 T2000
G1 E0.93725 F4200.00000
G92 E0
G1 Z0.450 F9000.000
G1 X134.928 Y148.743 F9000.000
G1 Z0.200 F9000.000
G1 E5.00000 F4200.00000
M201 X600 Y600
M204 P600 T600
G1 F2400
G1 X134.993 Y148.678 E5.00225
G1 X134.993 Y148.242 E5.01285
G1 X134.492 Y148.743 E5.03010
G1 X134.057 Y148.743 E5.04070
G1 X134.993 Y147.807 E5.07294
G1 X134.993 Y147.371 E5.08355
G1 X133.621 Y148.743 E5.13079
G1 X133.185 Y148.743 E5.14139
G1 X134.993 Y146.935 E5.20363
G1 X134.993 Y146.499 E5.21424
G1 X132.749 Y148.743 E5.29147
G1 X132.314 Y148.743 E5.30208
G1 X134.993 Y146.064 E5.39431
G1 X134.993 Y145.628 E5.40491
G1 X131.878 Y148.743 E5.51215
G1 X131.442 Y148.743 E5.52275
G1 X134.929 Y145.257 E5.64277
G1 X134.493 Y145.257 E5.65337
G1 X131.007 Y148.743 E5.77339
G1 X130.571 Y148.743 E5.78399
G1 X134.058 Y145.257 E5.90401
G1 X133.622 Y145.257 E5.91462
G1 X130.507 Y148.372 E6.02185
G1 X130.507 Y147.936 E6.03245
G1 X133.186 Y145.257 E6.12469
G1 X132.751 Y145.257 E6.13529
G1 X130.507 Y147.501 E6.21253
G1 X130.507 Y147.065 E6.22313
G1 X132.315 Y145.257 E6.28537
G1 X131.879 Y145.257 E6.29598
G1 X130.507 Y146.629 E6.34322
G1 X130.507 Y146.193 E6.35382
G1 X131.443 Y145.257 E6.38606
G1 X131.008 Y145.257 E6.39667
G1 X130.507 Y145.758 E6.41391
G1 X130.507 Y145.322 E6.42452
G1 X130.572 Y145.257 E6.42677
M201 X2000 Y2000
M204 P2000 T2000
G1 E1.42677 F4200.00000
G92 E0
G1 Z0.450 F9000.000
G1 X128.575 Y144.675 F9000.000
G1 Z0.200 F9000.000
G1 E5.00000 F4200.00000
M201 X600 Y600
M204 P600 T600
G1 F960
G1 X128.575 Y149.325 E5.11280
G1 X121.425 Y149.325 E5.28623
G1 X121.425 Y144.675 E5.39903
G1 X128.523 Y144.675 E5.57119
M201 X2000 Y2000
M204 P2000 T2000
G1 X128.461 Y145.006 F9000.000
G1 X128.268 Y144.982 F9000.000
M201 X600 Y600
M204 P600 T600
G1 F960
G1 X128.268 Y149.018 E5.66909
G1 X121.732 Y149.018 E5.82763
G1 X121.732 Y144.982 E5.92553
G1 X128.215 Y144.982 E6.08280
M201 X2000 Y2000
M204 P2000 T2000
G1 E1.08280 F4200.00000
G92 E0
G1 Z0.450 F9000.000
G1 X127.928 Y148.743 F9000.000
G1 Z0.200 F9000.000
G1 E5.00000 F4200.00000
M201 X600 Y600
M204 P600 T600
G1 F2400
G1 X127.993 Y148.678 E5.00229
G1 X127.993 Y148.233 E5.01335
G1 X127.483 Y148.743 E5.03128
G1 X127.038 Y148.743 E5.04234
G1 X127.993 Y147.788 E5.07591
G1 X127.993 Y147.343 E5.08696
G1 X126.593 Y148.743 E5.13617
G1 X126.148 Y148.743 E5.14722
G1 X127.993 Y146.899 E5.21206
G1 X127.993 Y146.454 E5.22312
G1 X125.704 Y148.743 E5.30360
G1 X125.259 Y148.743 E5.31465
G1 X127.993 Y146.009 E5.41077
G1 X127.993 Y145.564 E5.42182
G1 X124.814 Y148.743 E5.53357
G1 X124.369 Y148.743 E5.54463
G1 X127.856 Y145.257 E5.66717
G1 X127.411 Y145.257 E5.67823
G1 X123.924 Y148.743 E5.80078
G1 X123.479 Y148.743 E5.81183
G1 X126.966 Y145.257 E5.93438
G1 X126.521 Y145.257 E5.94544
G1 X123.034 Y148.743 E6.06798
G1 X122.589 Y148.743 E6.07904
G1 X126.076 Y145.257 E6.20158
G1 X125.631 Y145.257 E6.21264
G1 X122.144 Y148.743 E6.33519
G1 X122.007 Y148.743 E6.33861
G1 X122.007 Y148.436 E6.34624
G1 X125.186 Y145.257 E6.45799
G1 X124.741 Y145.257 E6.46905
G1 X122.007 Y147.991 E6.56516
G1 X122.007 Y147.546 E6.57622
G1 X124.296 Y145.257 E6.65669
G1 X123.852 Y145.257 E6.66775
G1 X122.007 Y147.101 E6.73259
G1 X122.007 Y146.657 E6.74365
G1 X123.407 Y145.257 E6.79285
G1 X122.962 Y145.257 E6.80391
G1 X122.007 Y146.212 E6.83748
G1 X122.007 Y145.767 E6.84853
G1 X122.517 Y145.257 E6.86646
G1 X122.072 Y145.257 E6.87752
G1 X122.007 Y145.322 E6.87981
M201 X2000 Y2000
M204 P2000 T2000
G1 E1.87981 F4200.00000
G92 E0
G1 Z0.450 F9000.000
G1 X120.075 Y144.675 F9000.000
G1 Z0.200 F9000.000
G1 E5.00000 F4200.00000
M201 X600 Y600
M204 P600 T600
G1 F960
G1 X120.075 Y149.325 E5.11280
G1 X114.425 Y149.325 E5.24985
G1 X114.425 Y144.675 E5.36264
G1 X120.023 Y144.675 E5.49842
M201 X2000 Y2000
M204 P2000 T2000
G1 X119.974 Y145.010 F9000.000
G1 X119.768 Y144.982 F9000.000
M201 X600 Y600
M204 P600 T600
G1 F960
G1 X119.768 Y149.018 E5.59632
G1 X114.732 Y149.018 E5.71848
G1 X114.732 Y144.982 E5.81637
G1 X119.715 Y144.982 E5.93725
M201 X2000 Y2000
M204 P2000 T2000
G1 E0.93725 F4200.00000
G92 E0
G1 Z0.450 F9000.000
G1 X119.428 Y148.743 F9000.000
G1 Z0.200 F9000.000
G1 E5.00000 F4200.00000
M201 X600 Y600
M204 P600 T600
G1 F2400
G1 X119.493 Y148.678 E5.00225
G1 X119.493 Y148.242 E5.01285
G1 X118.992 Y148.743 E5.03010
G1 X118.557 Y148.743 E5.04070
G1 X119.493 Y147.807 E5.07294
G1 X119.493 Y147.371 E5.08355
G1 X118.121 Y148.743 E5.13079
G1 X117.685 Y148.743 E5.14139
G1 X119.493 Y146.935 E5.20363
G1 X119.493 Y146.500 E5.21424
G1 X117.249 Y148.743 E5.29147
G1 X116.814 Y148.743 E5.30208
G1 X119.493 Y146.064 E5.39431
G1 X119.493 Y145.628 E5.40491
G1 X116.378 Y148.743 E5.51214
G1 X115.942 Y148.743 E5.52275
G1 X119.429 Y145.257 E5.64277
G1 X118.993 Y145.257 E5.65337
G1 X115.507 Y148.743 E5.77339
G1 X115.071 Y148.743 E5.78399
G1 X118.558 Y145.257 E5.90401
G1 X118.122 Y145.257 E5.91461
G1 X115.007 Y148.372 E6.02185
G1 X115.007 Y147.936 E6.03245
G1 X117.686 Y145.257 E6.12468
G1 X117.251 Y145.257 E6.13529
G1 X115.007 Y147.501 E6.21253
G1 X115.007 Y147.065 E6.22313
G1 X116.815 Y145.257 E6.28537
G1 X116.379 Y145.257 E6.29597
G1 X115.007 Y146.629 E6.34321
G1 X115.007 Y146.193 E6.35382
G1 X115.943 Y145.257 E6.38606
G1 X115.508 Y145.257 E6.39667
G1 X115.007 Y145.758 E6.41391
G1 X115.007 Y145.322 E6.42452
G1 X115.072 Y145.257 E6.42677
M201 X2000 Y2000
M204 P2000 T2000
G1 E1.42677 F4200.00000
G92 E0
G1 Z0.450 F9000.000
G1 X113.075 Y144.675 F9000.000
G1 Z0.200 F9000.000
G1 E5.00000 F4200.00000
M201 X600 Y600
M204 P600 T600
G1 F960
G1 X113.075 Y149.325 E5.11280
G1 X107.425 Y149.325 E5.24985
G1 X107.425 Y144.675 E5.36264
G1 X113.023 Y144.675 E5.49842
M201 X2000 Y2000
M204 P2000 T2000
G1 X112.974 Y145.010 F9000.000
G1 X112.768 Y144.982 F9000.000
M201 X600 Y600
M204 P600 T600
G1 F960
G1 X112.768 Y149.018 E5.59632
G1 X107.732 Y149.018 E5.71848
G1 X107.732 Y144.982 E5.81637
G1 X112.715 Y144.982 E5.93725
M201 X2000 Y2000
M204 P2000 T2000
G1 E0.93725 F4200.00000
G92 E0
G1 Z0.450 F9000.000
G1 X112.428 Y148.743 F9000.000
G1 Z0.200 F9000.000
G1 E5.00000 F4200.00000
M201 X600 Y600
M204 P600 T600
G1 F2400
G1 X112.493 Y148.678 E5.00225
G1 X112.493 Y148.242 E5.01285
G1 X111.992 Y148.743 E5.03010
G1 X111.557 Y148.743 E5.04070
G1 X112.493 Y147.807 E5.07294
G1 X112.493 Y147.371 E5.08355
G1 X111.121 Y148.743 E5.13079
G1 X110.685 Y148.743 E5.14139
G1 X112.493 Y146.935 E5.20363
G1 X112.493 Y146.500 E5.21424
G1 X110.249 Y148.743 E5.29147
G1 X109.814 Y148.743 E5.30208
G1 X112.493 Y146.064 E5.39431
G1 X112.493 Y145.628 E5.40491
G1 X109.378 Y148.743 E5.51214
G1 X108.942 Y148.743 E5.52275
G1 X112.429 Y145.257 E5.64277
G1 X111.993 Y145.257 E5.65337
G1 X108.507 Y148.743 E5.77339
G1 X108.071 Y148.743 E5.78399
G1 X111.558 Y145.257 E5.90401
G1 X111.122 Y145.257 E5.91461
G1 X108.007 Y148.372 E6.02185
G1 X108.007 Y147.936 E6.03245
G1 X110.686 Y145.257 E6.12468
G1 X110.251 Y145.257 E6.13529
G1 X108.007 Y147.501 E6.21253
G1 X108.007 Y147.065 E6.22313
G1 X109.815 Y145.257 E6.28537
G1 X109.379 Y145.257 E6.29597
G1 X108.007 Y146.629 E6.34321
G1 X108.007 Y146.193 E6.35382
G1 X108.943 Y145.257 E6.38606
G1 X108.508 Y145.257 E6.39667
G1 X108.007 Y145.758 E6.41391
G1 X108.007 Y145.322 E6.42452
G1 X108.072 Y145.257 E6.42677
M201 X2000 Y2000
M204 P2000 T2000
G1 E1.42677 F4200.00000
G92 E0
G1 Z0.450 F9000.000
G1 X106.075 Y144.675 F9000.000
G1 Z0.200 F9000.000
G1 E5.00000 F4200.00000
M201 X600 Y600
M204 P600 T600
G1 F960
G1 X106.075 Y149.325 E5.11280
G1 X100.425 Y149.325 E5.24985
G1 X100.425 Y144.675 E5.36264
