; generated by Slic3r 1.3.1-dev on 2021-04-15 at 21:51:03

; external perimeters extrusion width = 0.35mm (3.68mm^3/s)
; perimeters extrusion width = 0.35mm (6.14mm^3/s)
; infill extrusion width = 0.40mm (10.71mm^3/s)
; solid infill extrusion width = 0.35mm (6.14mm^3/s)
; top infill extrusion width = 0.35mm (4.91mm^3/s)

M107
;Startcode FELIXprinters
;Pre-initialize
;================================
G90 ; absolute mode
M107 ; Turn off fan

; Heat up heaters
;================================
; First start heating up, this will prevent damage, if previous print is still on the bed and 
; stuck to the hot-end
G90 ; Absolute positioning
M82 ; Extruder in absolute
M104 S210
M140 S60
M109 S210
M190 S60

; Move up head a little before homing to prevent collision with remainders of filament and bed.
;================================
G91 ; Make coordinates relative
G1 Z1 F200; Move up head a little to prevent tw mm (from current position because it is all relative now) 
G90 ; Use absolute coordinates again

; Home printer
;================================
G28 ; Home all axes

; Purge extruder by drawing 2 lines
;================================
G92 E0			; reset extruder
G1 Z1.0 F3000		; move z down little to prevent scratching of surface
G1 X20.0 Y0.1 Z0.3 F3000.0	; move to start-line position
G1 X200.0 Y0.1 Z0.3 F1500.0 E15	; draw 1st line
G1 X200.0 Y1 Z0.3 F3000.0	; move to side a little
G1 X20.0 Y1 Z0.3 F1500.0 E30	; draw 2nd line
G1 E29.5 F3000		; retract filament 1.5mm
G92 E0					; reset extruder
; done purging
M117 Done purging

; Post-initialize
;================================
M106 ; Turn on fans
M117 FELIXprinting...
; Filament gcode

G21 ; set units to millimeters
G90 ; use absolute coordinates
M82 ; use absolute distances for extrusion
G92 E0
G92 E0
G1 E-5.00000 F4200.00000
G92 E0
G1 Z0.250 F9000.000
G1 X98.475 Y89.925 F9000.000
G1 Z0.200 F9000.000
G1 E5.00000 F4200.00000
M201 X600 Y600
M204 P600 T600
G1 F960
G1 X103.525 Y89.925 E5.12250
G1 X103.525 Y99.075 E5.34445
G1 X98.475 Y99.075 E5.46695
G1 X98.475 Y89.977 E5.68763
M201 X2000 Y2000
M204 P2000 T2000
G1 X98.803 Y90.047 F9000.000
G1 X98.782 Y90.232 F9000.000
M201 X600 Y600
M204 P600 T600
G1 F960
G1 X103.218 Y90.232 E5.79523
G1 X103.218 Y98.768 E6.00228
G1 X98.782 Y98.768 E6.10988
G1 X98.782 Y90.285 E6.31566
M201 X2000 Y2000
M204 P2000 T2000
G1 E1.31566 F4200.00000
G92 E0
G1 Z0.450 F9000.000
G1 X100.241 Y92.553 F9000.000
G1 Z0.200 F9000.000
G1 E5.00000 F4200.00000
M201 X600 Y600
M204 P600 T600
G1 F960
G1 X100.384 Y92.464 E5.00410
G1 X100.735 Y92.354 E5.01303
G1 X101.000 Y92.324 E5.01949
G1 X101.317 Y92.360 E5.02724
G1 X101.619 Y92.465 E5.03499
G1 X101.889 Y92.635 E5.04273
G1 X102.115 Y92.861 E5.05048
G1 X102.285 Y93.131 E5.05823
G1 X102.390 Y93.433 E5.06597
G1 X102.426 Y93.750 E5.07372
G1 X102.390 Y94.067 E5.08146
G1 X102.285 Y94.369 E5.08921
G1 X102.115 Y94.639 E5.09696
G1 X101.889 Y94.865 E5.10470
G1 X101.619 Y95.035 E5.11245
G1 X101.317 Y95.140 E5.12020
G1 X101.000 Y95.176 E5.12794
G1 X100.683 Y95.140 E5.13569
G1 X100.381 Y95.035 E5.14344
G1 X100.111 Y94.865 E5.15118
G1 X99.885 Y94.639 E5.15893
G1 X99.715 Y94.369 E5.16668
G1 X99.610 Y94.067 E5.17442
G1 X99.574 Y93.750 E5.18217
G1 X99.610 Y93.433 E5.18991
G1 X99.715 Y93.131 E5.19766
G1 X99.885 Y92.861 E5.20541
G1 X100.111 Y92.635 E5.21315
G1 X100.196 Y92.581 E5.21560
M201 X2000 Y2000
M204 P2000 T2000
G1 X100.226 Y92.385 F9000.000
G1 X100.077 Y92.293 F9000.000
M201 X600 Y600
M204 P600 T600
G1 F960
G1 X100.254 Y92.182 E5.22067
G1 X100.672 Y92.052 E5.23128
G1 X101.000 Y92.015 E5.23929
G1 X101.386 Y92.058 E5.24872
G1 X101.753 Y92.187 E5.25814
G1 X102.082 Y92.393 E5.26757
G1 X102.357 Y92.668 E5.27699
G1 X102.563 Y92.997 E5.28642
G1 X102.692 Y93.364 E5.29584
G1 X102.735 Y93.750 E5.30527
G1 X102.692 Y94.136 E5.31469
G1 X102.563 Y94.503 E5.32412
G1 X102.357 Y94.832 E5.33354
G1 X102.082 Y95.107 E5.34297
G1 X101.753 Y95.313 E5.35239
G1 X101.386 Y95.442 E5.36182
G1 X101.000 Y95.485 E5.37124
G1 X100.614 Y95.442 E5.38067
G1 X100.247 Y95.313 E5.39009
G1 X99.918 Y95.107 E5.39952
G1 X99.643 Y94.832 E5.40894
G1 X99.437 Y94.503 E5.41837
G1 X99.308 Y94.136 E5.42779
G1 X99.265 Y93.750 E5.43722
G1 X99.308 Y93.364 E5.44664
G1 X99.437 Y92.997 E5.45607
G1 X99.643 Y92.668 E5.46549
G1 X99.918 Y92.393 E5.47492
G1 X100.033 Y92.321 E5.47820
M201 X2000 Y2000
M204 P2000 T2000
G1 X99.308 Y92.573 F9000.000
M201 X600 Y600
M204 P600 T600
G1 F2400
G1 X99.348 Y92.580 E5.47924
G1 X99.428 Y92.453 E5.48303
G1 X99.242 Y92.639 E5.48964
M201 X2000 Y2000
M204 P2000 T2000
G1 E0.48964 F4200.00000
G92 E0
G1 Z0.450 F9000.000
G1 X99.057 Y90.572 F9000.000
G1 Z0.200 F9000.000
G1 E5.00000 F4200.00000
M201 X600 Y600
M204 P600 T600
G1 F2400
G1 X99.122 Y90.507 E5.00232
G1 X99.572 Y90.507 E5.01365
G1 X99.057 Y91.022 E5.03201
G1 X99.057 Y91.473 E5.04335
G1 X100.023 Y90.507 E5.07774
G1 X100.473 Y90.507 E5.08907
G1 X99.057 Y91.923 E5.13949
G1 X99.057 Y92.374 E5.15083
G1 X100.924 Y90.507 E5.21728
G1 X101.374 Y90.507 E5.22862
G1 X99.703 Y92.178 E5.28811
G1 X100.092 Y91.934 E5.29968
G1 X100.537 Y91.795 E5.31141
G1 X101.825 Y90.507 E5.35725
G1 X102.275 Y90.507 E5.36858
G1 X101.036 Y91.746 E5.41270
G1 X101.438 Y91.795 E5.42288
G1 X102.726 Y90.507 E5.46873
G1 X102.943 Y90.507 E5.47420
G1 X102.943 Y90.740 E5.48007
G1 X101.771 Y91.912 E5.52178
G1 X101.854 Y91.941 E5.52400
G1 X102.062 Y92.071 E5.53017
G1 X102.943 Y91.190 E5.56154
G1 X102.943 Y91.641 E5.57287
G1 X102.321 Y92.263 E5.59503
G1 X102.546 Y92.489 E5.60305
G1 X102.943 Y92.091 E5.61719
G1 X102.943 Y92.542 E5.62853
G1 X102.878 Y92.607 E5.63085
M201 X2000 Y2000
M204 P2000 T2000
G1 X102.882 Y92.891 F9000.000
M201 X600 Y600
M204 P600 T600
G1 F960
G1 X102.916 Y93.091 E5.63518
M201 X2000 Y2000
M204 P2000 T2000
M201 X600 Y600
M204 P600 T600
G1 F960
G1 X102.953 Y93.317 E5.63853
M201 X2000 Y2000
M204 P2000 T2000
M201 X600 Y600
M204 P600 T600
G1 F960
G1 X102.977 Y93.760 E5.64317
M201 X2000 Y2000
M204 P2000 T2000
M201 X600 Y600
M204 P600 T600
G1 F960
G1 X102.950 Y94.208 E5.64975
M201 X2000 Y2000
M204 P2000 T2000
M201 X600 Y600
M204 P600 T600
G1 F960
G1 X102.882 Y94.609 E5.65840
M201 X2000 Y2000
M204 P2000 T2000
G1 E0.65840 F4200.00000
G92 E0
G1 Z0.450 F9000.000
G1 X99.118 Y94.609 F9000.000
G1 Z0.200 F9000.000
G1 E5.00000 F4200.00000
M201 X600 Y600
M204 P600 T600
G1 F960
G1 X99.084 Y94.409 E5.00433
M201 X2000 Y2000
M204 P2000 T2000
M201 X600 Y600
M204 P600 T600
G1 F960
G1 X99.047 Y94.183 E5.00768
M201 X2000 Y2000
M204 P2000 T2000
M201 X600 Y600
M204 P600 T600
G1 F960
G1 X99.023 Y93.740 E5.01232
M201 X2000 Y2000
M204 P2000 T2000
M201 X600 Y600
M204 P600 T600
G1 F960
G1 X99.050 Y93.292 E5.01890
M201 X2000 Y2000
M204 P2000 T2000
M201 X600 Y600
M204 P600 T600
G1 F960
G1 X99.118 Y92.891 E5.02755
M201 X2000 Y2000
M204 P2000 T2000
G1 E0.02755 F4200.00000
G92 E0
G1 Z0.450 F9000.000
G1 X99.122 Y94.893 F9000.000
G1 Z0.200 F9000.000
G1 E5.00000 F4200.00000
M201 X600 Y600
M204 P600 T600
G1 F2400
G1 X99.057 Y94.958 E5.00237
G1 X99.057 Y95.418 E5.01418
G1 X99.459 Y95.016 E5.02878
G1 X99.688 Y95.246 E5.03713
G1 X99.057 Y95.878 E5.06008
G1 X99.057 Y96.338 E5.07189
G1 X99.955 Y95.439 E5.10452
G1 X100.146 Y95.559 E5.11031
G1 X100.256 Y95.598 E5.11331
G1 X99.057 Y96.797 E5.15689
G1 X99.057 Y97.257 E5.16870
G1 X100.601 Y95.713 E5.22479
G1 X101.014 Y95.759 E5.23547
G1 X99.057 Y97.717 E5.30657
G1 X99.057 Y98.177 E5.31838
G1 X101.542 Y95.691 E5.40866
G1 X101.919 Y95.559 E5.41892
G1 X102.307 Y95.316 E5.43068
G1 X102.631 Y94.992 E5.44243
G1 X102.717 Y94.855 E5.44660
G1 X102.821 Y94.872 E5.44931
G1 X99.200 Y98.493 E5.58083
G1 X99.660 Y98.493 E5.59264
G1 X102.943 Y95.210 E5.71191
G1 X102.943 Y95.669 E5.72372
G1 X100.119 Y98.493 E5.82629
G1 X100.579 Y98.493 E5.83810
G1 X102.943 Y96.129 E5.92397
G1 X102.943 Y96.589 E5.93578
G1 X101.039 Y98.493 E6.00495
G1 X101.499 Y98.493 E6.01676
G1 X102.943 Y97.049 E6.06923
G1 X102.943 Y97.509 E6.08104
G1 X101.959 Y98.493 E6.11681
G1 X102.418 Y98.493 E6.12862
G1 X102.943 Y97.968 E6.14769
G1 X102.943 Y98.428 E6.15950
G1 X102.878 Y98.493 E6.16187
M201 X2000 Y2000
M204 P2000 T2000
G1 E1.16187 F4200.00000
G92 E0
G1 Z0.450 F9000.000
G1 X110.637 Y99.012 F9000.000
G1 Z0.200 F9000.000
G1 E5.00000 F4200.00000
M201 X600 Y600
M204 P600 T600
G1 F960
G1 X110.637 Y89.862 E5.22195
G1 X115.687 Y89.862 E5.34445
G1 X115.687 Y99.012 E5.56640
G1 X110.689 Y99.012 E5.68763
M201 X2000 Y2000
M204 P2000 T2000
G1 X110.695 Y98.667 F9000.000
G1 X110.944 Y98.705 F9000.000
M201 X600 Y600
M204 P600 T600
G1 F960
G1 X110.944 Y90.169 E5.89468
G1 X115.380 Y90.169 E6.00228
G1 X115.380 Y98.705 E6.20934
G1 X110.996 Y98.705 E6.31567
M201 X2000 Y2000
M204 P2000 T2000
G1 E1.31567 F4200.00000
G92 E0
G1 Z0.450 F9000.000
G1 X112.543 Y94.972 F9000.000
G1 Z0.200 F9000.000
G1 E5.00000 F4200.00000
M201 X600 Y600
M204 P600 T600
G1 F960
G1 X112.272 Y94.802 E5.00775
G1 X112.047 Y94.576 E5.01549
G1 X111.877 Y94.305 E5.02324
G1 X111.771 Y94.004 E5.03099
G1 X111.736 Y93.687 E5.03873
G1 X111.771 Y93.369 E5.04648
G1 X111.877 Y93.068 E5.05422
G1 X112.047 Y92.797 E5.06197
G1 X112.272 Y92.572 E5.06972
G1 X112.545 Y92.400 E5.07754
G1 X112.897 Y92.290 E5.08647
G1 X113.162 Y92.261 E5.09293
G1 X113.479 Y92.296 E5.10068
G1 X113.780 Y92.402 E5.10842
G1 X114.051 Y92.572 E5.11617
G1 X114.277 Y92.797 E5.12392
G1 X114.447 Y93.068 E5.13166
G1 X114.552 Y93.369 E5.13941
G1 X114.588 Y93.687 E5.14716
G1 X114.552 Y94.004 E5.15490
G1 X114.447 Y94.305 E5.16265
G1 X114.277 Y94.576 E5.17040
G1 X114.051 Y94.802 E5.17814
G1 X113.780 Y94.972 E5.18589
G1 X113.479 Y95.077 E5.19364
G1 X113.162 Y95.113 E5.20138
G1 X112.844 Y95.077 E5.20913
G1 X112.592 Y94.989 E5.21560
M201 X2000 Y2000
M204 P2000 T2000
G1 X112.543 Y94.972 F9000.000
G1 X112.441 Y95.261 F9000.000
M201 X600 Y600
M204 P600 T600
G1 F960
G1 X112.080 Y95.043 E5.22585
G1 X111.805 Y94.768 E5.23527
G1 X111.598 Y94.440 E5.24470
G1 X111.470 Y94.073 E5.25412
G1 X111.427 Y93.687 E5.26355
G1 X111.470 Y93.301 E5.27297
G1 X111.598 Y92.934 E5.28240
G1 X111.805 Y92.605 E5.29182
G1 X112.080 Y92.330 E5.30125
G1 X112.416 Y92.119 E5.31087
G1 X112.833 Y91.989 E5.32148
G1 X113.162 Y91.952 E5.32950
G1 X113.548 Y91.995 E5.33892
G1 X113.914 Y92.123 E5.34835
G1 X114.243 Y92.330 E5.35777
G1 X114.518 Y92.605 E5.36720
G1 X114.725 Y92.934 E5.37662
G1 X114.853 Y93.301 E5.38605
G1 X114.897 Y93.687 E5.39547
G1 X114.853 Y94.073 E5.40490
G1 X114.725 Y94.440 E5.41432
G1 X114.518 Y94.768 E5.42375
G1 X114.243 Y95.043 E5.43317
G1 X113.914 Y95.250 E5.44260
G1 X113.548 Y95.378 E5.45202
G1 X113.162 Y95.422 E5.46145
G1 X112.776 Y95.378 E5.47087
G1 X112.491 Y95.279 E5.47818
M201 X2000 Y2000
M204 P2000 T2000
G1 X111.284 Y94.830 F9000.000
M201 X600 Y600
M204 P600 T600
G1 F2400
G1 X111.218 Y94.895 E5.48056
G1 X111.218 Y95.355 E5.49236
G1 X111.620 Y94.953 E5.50697
G1 X111.850 Y95.183 E5.51532
G1 X111.218 Y95.815 E5.53827
G1 X111.218 Y96.274 E5.55008
G1 X112.117 Y95.376 E5.58271
G1 X112.307 Y95.496 E5.58849
G1 X112.418 Y95.534 E5.59150
G1 X111.218 Y96.734 E5.63507
G1 X111.218 Y97.194 E5.64688
G1 X112.763 Y95.650 E5.70297
G1 X113.176 Y95.696 E5.71365
G1 X111.218 Y97.654 E5.78475
G1 X111.218 Y98.114 E5.79656
G1 X113.704 Y95.628 E5.88685
G1 X114.081 Y95.496 E5.89711
G1 X114.469 Y95.252 E5.90886
G1 X114.792 Y94.929 E5.92062
G1 X114.879 Y94.791 E5.92479
G1 X114.983 Y94.809 E5.92750
G1 X111.361 Y98.430 E6.05902
G1 X111.821 Y98.430 E6.07083
G1 X115.105 Y95.146 E6.19010
G1 X115.105 Y95.606 E6.20191
G1 X112.281 Y98.430 E6.30448
G1 X112.741 Y98.430 E6.31629
G1 X115.105 Y96.066 E6.40216
G1 X115.105 Y96.526 E6.41396
G1 X113.201 Y98.430 E6.48314
G1 X113.660 Y98.430 E6.49494
G1 X115.105 Y96.985 E6.54741
G1 X115.105 Y97.445 E6.55922
G1 X114.120 Y98.430 E6.59499
G1 X114.580 Y98.430 E6.60680
G1 X115.105 Y97.905 E6.62587
G1 X115.105 Y98.365 E6.63768
G1 X115.040 Y98.430 E6.64005
M201 X2000 Y2000
M204 P2000 T2000
G1 E1.64005 F4200.00000
G92 E0
G1 Z0.450 F9000.000
G1 X115.044 Y94.546 F9000.000
G1 Z0.200 F9000.000
G1 E5.00000 F4200.00000
M201 X600 Y600
M204 P600 T600
G1 F960
G1 X115.112 Y94.145 E5.00865
M201 X2000 Y2000
M204 P2000 T2000
M201 X600 Y600
M204 P600 T600
G1 F960
G1 X115.138 Y93.696 E5.01524
M201 X2000 Y2000
M204 P2000 T2000
M201 X600 Y600
M204 P600 T600
G1 F960
G1 X115.115 Y93.254 E5.01987
M201 X2000 Y2000
M204 P2000 T2000
M201 X600 Y600
M204 P600 T600
G1 F960
G1 X115.078 Y93.028 E5.02323
M201 X2000 Y2000
M204 P2000 T2000
M201 X600 Y600
M204 P600 T600
G1 F960
G1 X115.044 Y92.827 E5.02755
M201 X2000 Y2000
M204 P2000 T2000
G1 X115.040 Y92.544 F9000.000
M201 X600 Y600
M204 P600 T600
G1 F2400
G1 X115.105 Y92.478 E5.02988
G1 X115.105 Y92.028 E5.04122
G1 X114.708 Y92.425 E5.05536
G1 X114.482 Y92.200 E5.06337
G1 X115.105 Y91.577 E5.08553
G1 X115.105 Y91.127 E5.09687
G1 X114.224 Y92.008 E5.12823
G1 X114.016 Y91.878 E5.13441
G1 X113.933 Y91.848 E5.13662
G1 X115.105 Y90.676 E5.17834
G1 X115.105 Y90.443 E5.18420
G1 X114.888 Y90.443 E5.18967
G1 X113.599 Y91.732 E5.23553
G1 X113.198 Y91.683 E5.24571
G1 X114.437 Y90.443 E5.28982
G1 X113.987 Y90.443 E5.30116
G1 X112.698 Y91.731 E5.34700
G1 X112.254 Y91.870 E5.35873
G1 X111.864 Y92.115 E5.37029
G1 X113.536 Y90.443 E5.42978
G1 X113.086 Y90.443 E5.44112
G1 X111.218 Y92.311 E5.50758
G1 X111.218 Y91.860 E5.51891
G1 X112.635 Y90.443 E5.56933
G1 X112.185 Y90.443 E5.58067
G1 X111.218 Y91.410 E5.61506
G1 X111.218 Y90.959 E5.62640
G1 X111.734 Y90.443 E5.64475
G1 X111.283 Y90.443 E5.65609
G1 X111.218 Y90.508 E5.65841
M201 X2000 Y2000
M204 P2000 T2000
G1 E0.65841 F4200.00000
G92 E0
G1 Z0.450 F9000.000
G1 X111.469 Y92.510 F9000.000
G1 Z0.200 F9000.000
G1 E5.00000 F4200.00000
M201 X600 Y600
M204 P600 T600
G1 F2400
G1 X111.510 Y92.517 E5.00103
G1 X111.590 Y92.389 E5.00482
G1 X111.404 Y92.575 E5.01143
M201 X2000 Y2000
M204 P2000 T2000
G1 X111.280 Y92.827 F9000.000
M201 X600 Y600
M204 P600 T600
G1 F960
G1 X111.212 Y93.228 E5.02008
M201 X2000 Y2000
M204 P2000 T2000
M201 X600 Y600
M204 P600 T600
G1 F960
G1 X111.185 Y93.677 E5.02667
M201 X2000 Y2000
M204 P2000 T2000
M201 X600 Y600
M204 P600 T600
G1 F960
G1 X111.209 Y94.120 E5.03131
M201 X2000 Y2000
M204 P2000 T2000
M201 X600 Y600
M204 P600 T600
G1 F960
G1 X111.246 Y94.345 E5.03466
M201 X2000 Y2000
M204 P2000 T2000
M201 X600 Y600
M204 P600 T600
G1 F960
G1 X111.280 Y94.546 E5.03899
M201 X2000 Y2000
M204 P2000 T2000
G1 E0.03899 F4200.00000
G92 E0
G1 Z0.450 F9000.000
G1 X122.475 Y99.075 F9000.000
G1 Z0.200 F9000.000
G1 E5.00000 F4200.00000
M201 X600 Y600
M204 P600 T600
G1 F960
G1 X122.475 Y89.925 E5.22195
G1 X127.525 Y89.925 E5.34445
G1 X127.525 Y99.075 E5.56640
G1 X122.528 Y99.075 E5.68763
M201 X2000 Y2000
M204 P2000 T2000
G1 X122.534 Y98.730 F9000.000
G1 X122.782 Y98.768 F9000.000
M201 X600 Y600
M204 P600 T600
G1 F960
G1 X122.782 Y90.232 E5.89468
G1 X127.218 Y90.232 E6.00228
G1 X127.218 Y98.768 E6.20934
G1 X122.835 Y98.768 E6.31566
M201 X2000 Y2000
M204 P2000 T2000
G1 E1.31566 F4200.00000
G92 E0
G1 Z0.450 F9000.000
G1 X124.381 Y95.035 F9000.000
G1 Z0.200 F9000.000
G1 E5.00000 F4200.00000
M201 X600 Y600
M204 P600 T600
G1 F960
G1 X124.111 Y94.865 E5.00775
G1 X123.885 Y94.639 E5.01549
G1 X123.715 Y94.369 E5.02324
G1 X123.610 Y94.067 E5.03099
G1 X123.574 Y93.750 E5.03873
G1 X123.610 Y93.433 E5.04648
G1 X123.715 Y93.131 E5.05422
G1 X123.885 Y92.861 E5.06197
G1 X124.111 Y92.635 E5.06972
G1 X124.384 Y92.464 E5.07754
G1 X124.735 Y92.354 E5.08647
G1 X125.000 Y92.324 E5.09293
G1 X125.317 Y92.360 E5.10068
G1 X125.619 Y92.465 E5.10842
G1 X125.889 Y92.635 E5.11617
G1 X126.115 Y92.861 E5.12392
G1 X126.285 Y93.131 E5.13166
G1 X126.390 Y93.433 E5.13941
G1 X126.426 Y93.750 E5.14716
G1 X126.390 Y94.067 E5.15490
G1 X126.285 Y94.369 E5.16265
G1 X126.115 Y94.639 E5.17040
G1 X125.889 Y94.865 E5.17814
G1 X125.619 Y95.035 E5.18589
G1 X125.317 Y95.140 E5.19364
G1 X125.000 Y95.176 E5.20138
G1 X124.683 Y95.140 E5.20913
G1 X124.431 Y95.052 E5.21560
M201 X2000 Y2000
M204 P2000 T2000
G1 X124.381 Y95.035 F9000.000
G1 X124.218 Y95.295 F9000.000
M201 X600 Y600
M204 P600 T600
G1 F960
G1 X123.918 Y95.107 E5.22419
G1 X123.643 Y94.832 E5.23361
G1 X123.437 Y94.503 E5.24304
G1 X123.308 Y94.136 E5.25246
G1 X123.265 Y93.750 E5.26189
