; generated by Slic3r 1.3.1-dev on 2021-05-19 at 18:38:31

; external perimeters extrusion width = 0.35mm (3.68mm^3/s)
; perimeters extrusion width = 0.35mm (6.14mm^3/s)
; infill extrusion width = 0.40mm (10.71mm^3/s)
; solid infill extrusion width = 0.35mm (6.14mm^3/s)
; top infill extrusion width = 0.35mm (4.91mm^3/s)

M107
;Startcode FELIXprinters
;Pre-initialize
;================================
G90 ; absolute mode
M107 ; Turn off fan

; Heat up heaters
;================================
; First start heating up, this will prevent damage, if previous print is still on the bed and 
; stuck to the hot-end
G90 ; Absolute positioning
M82 ; Extruder in absolute
M104 S220
M140 S60
M109 S220
M190 S60

; Move up head a little before homing to prevent collision with remainders of filament and bed.
;================================
G91 ; Make coordinates relative
G1 Z1 F200; Move up head a little to prevent tw mm (from current position because it is all relative now) 
G90 ; Use absolute coordinates again

; Home printer
;================================
G28 ; Home all axes

; Purge extruder by drawing 2 lines
;================================
G92 E0			; reset extruder
G1 Z1.0 F3000		; move z down little to prevent scratching of surface
G1 X20.0 Y0.1 Z0.3 F3000.0	; move to start-line position
G1 X200.0 Y0.1 Z0.3 F1500.0 E15	; draw 1st line
G1 X200.0 Y1 Z0.3 F3000.0	; move to side a little
G1 X20.0 Y1 Z0.3 F1500.0 E30	; draw 2nd line
G1 E29.5 F3000		; retract filament 1.5mm
G92 E0					; reset extruder
; done purging
M117 Done purging

; Post-initialize
;================================
M106 ; Turn on fans
M117 FELIXprinting...
; Filament gcode

; Filament gcode

G21 ; set units to millimeters
G90 ; use absolute coordinates
M82 ; use absolute distances for extrusion
G92 E0
G92 E0
G1 E-5.00000 F4200.00000
G92 E0
G1 Z0.250 F9000.000
G1 X91.175 Y86.675 F9000.000
G1 Z0.200 F9000.000
G1 E5.00000 F4200.00000
M201 X600 Y600
M204 P600 T600
G1 F1440
G1 X110.825 Y86.675 E5.47665
G1 X110.825 Y98.505 E5.76361
G1 X110.845 Y98.856 E5.77215
G1 X110.904 Y99.204 E5.78071
G1 X111.002 Y99.545 E5.78932
G1 X111.137 Y99.873 E5.79793
G1 X111.309 Y100.184 E5.80653
G1 X111.513 Y100.474 E5.81515
G1 X111.761 Y100.751 E5.82415
G1 X112.026 Y100.987 E5.83276
G1 X112.316 Y101.191 E5.84137
G1 X112.626 Y101.363 E5.84997
G1 X112.940 Y101.492 E5.85819
G1 X113.295 Y101.596 E5.86718
G1 X113.644 Y101.655 E5.87575
G1 X113.995 Y101.675 E5.88429
G1 X173.825 Y101.675 E7.33559
G1 X173.825 Y118.325 E7.73947
G1 X119.175 Y118.325 E9.06512
G1 X119.175 Y117.675 E9.08089
G1 X166.013 Y117.675 E10.21703
G1 X166.332 Y117.629 E10.22486
G1 X166.637 Y117.490 E10.23298
G1 X166.885 Y117.274 E10.24095
G1 X166.992 Y117.131 E10.24530
G1 X167.129 Y116.832 E10.25327
G1 X167.175 Y116.513 E10.26110
G1 X167.175 Y103.487 E10.57705
G1 X167.130 Y103.174 E10.58473
G1 X167.067 Y103.006 E10.58909
G1 X166.886 Y102.726 E10.59717
G1 X166.641 Y102.514 E10.60502
G1 X166.488 Y102.431 E10.60925
G1 X166.326 Y102.370 E10.61345
G1 X166.013 Y102.325 E10.62113
G1 X83.837 Y102.336 E12.61446
G1 X83.656 Y102.376 E12.61896
G1 X83.365 Y102.509 E12.62672
G1 X83.113 Y102.728 E12.63483
G1 X83.006 Y102.871 E12.63916
G1 X82.873 Y103.162 E12.64692
G1 X82.825 Y103.487 E12.65489
G1 X82.825 Y118.325 E13.01481
G1 X76.175 Y118.325 E13.17612
G1 X76.175 Y101.675 E13.58000
G1 X88.005 Y101.675 E13.86696
G1 X88.356 Y101.655 E13.87550
G1 X88.727 Y101.590 E13.88462
G1 X89.044 Y101.499 E13.89262
G1 X89.372 Y101.364 E13.90123
G1 X89.702 Y101.180 E13.91040
G1 X89.971 Y100.989 E13.91841
G1 X90.236 Y100.754 E13.92700
G1 X90.489 Y100.472 E13.93618
G1 X90.693 Y100.182 E13.94479
G1 X90.864 Y99.871 E13.95338
G1 X90.999 Y99.544 E13.96197
G1 X91.090 Y99.227 E13.96998
G1 X91.155 Y98.856 E13.97910
G1 X91.175 Y98.505 E13.98763
G1 X91.175 Y86.727 E14.27332
M201 X2000 Y2000
M204 P2000 T2000
G1 X91.478 Y86.850 F9000.000
G1 E9.27332 F4200.00000
G92 E0
G1 Z0.450 F9000.000
G1 X83.462 Y102.127 F9000.000
G1 Z0.200 F9000.000
G1 E5.00000 F4200.00000
M201 X600 Y600
M204 P600 T600
G1 F2400
G1 X83.197 Y102.248 E5.00706
G1 X82.887 Y102.518 E5.01705
G1 X82.741 Y102.714 E5.02297
G1 X82.576 Y103.074 E5.03257
G1 X82.518 Y103.465 E5.04215
G1 X82.518 Y118.018 E5.39517
G1 X76.482 Y118.018 E5.54159
G1 X76.482 Y101.982 E5.93057
G1 X83.430 Y101.982 E6.09911
G1 X83.451 Y102.076 E6.10144
M201 X2000 Y2000
M204 P2000 T2000
G1 E1.10144 F4200.00000
G92 E0
G1 Z0.450 F9000.000
G1 X80.149 Y108.902 F9000.000
G1 Z0.200 F9000.000
G1 E5.00000 F4200.00000
M201 X600 Y600
M204 P600 T600
G1 F960
G1 X80.422 Y109.119 E5.00846
G1 X80.555 Y109.283 E5.01360
G1 X80.653 Y109.455 E5.01839
G1 X80.757 Y109.785 E5.02679
G1 X80.776 Y109.999 E5.03200
G1 X80.761 Y110.192 E5.03670
G1 X80.713 Y110.392 E5.04168
G1 X80.631 Y110.589 E5.04687
G1 X80.441 Y110.861 E5.05490
G1 X80.280 Y111.009 E5.06020
G1 X79.978 Y111.183 E5.06867
G1 X79.791 Y111.242 E5.07342
G1 X79.580 Y111.273 E5.07860
G1 X79.231 Y111.247 E5.08708
G1 X79.029 Y111.185 E5.09221
G1 X78.851 Y111.098 E5.09700
G1 X78.578 Y110.881 E5.10547
G1 X78.445 Y110.717 E5.11060
G1 X78.347 Y110.545 E5.11539
G1 X78.243 Y110.215 E5.12380
G1 X78.224 Y110.001 E5.12900
G1 X78.239 Y109.808 E5.13370
G1 X78.288 Y109.603 E5.13881
G1 X78.441 Y109.289 E5.14728
G1 X78.563 Y109.135 E5.15204
G1 X78.720 Y108.991 E5.15721
G1 X79.022 Y108.817 E5.16568
G1 X79.209 Y108.758 E5.17042
G1 X79.420 Y108.727 E5.17560
G1 X79.769 Y108.753 E5.18408
G1 X79.971 Y108.815 E5.18922
G1 X80.102 Y108.879 E5.19273
M201 X2000 Y2000
M204 P2000 T2000
G1 X80.149 Y108.902 F9000.000
G1 X80.340 Y108.661 F9000.000
M201 X600 Y600
M204 P600 T600
G1 F960
G1 X80.639 Y108.899 E5.20201
G1 X80.809 Y109.109 E5.20856
G1 X80.936 Y109.331 E5.21476
G1 X81.060 Y109.725 E5.22478
G1 X81.084 Y109.997 E5.23140
G1 X81.065 Y110.240 E5.23731
G1 X81.006 Y110.487 E5.24348
G1 X80.902 Y110.738 E5.25006
G1 X80.674 Y111.064 E5.25972
G1 X80.463 Y111.258 E5.26667
G1 X80.102 Y111.466 E5.27678
G1 X79.860 Y111.542 E5.28291
G1 X79.591 Y111.582 E5.28951
G1 X79.174 Y111.551 E5.29966
G1 X78.916 Y111.472 E5.30621
G1 X78.686 Y111.360 E5.31240
G1 X78.361 Y111.101 E5.32249
G1 X78.191 Y110.891 E5.32905
G1 X78.064 Y110.669 E5.33525
G1 X77.940 Y110.275 E5.34527
G1 X77.916 Y110.003 E5.35189
G1 X77.935 Y109.760 E5.35780
G1 X77.997 Y109.499 E5.36431
G1 X78.179 Y109.124 E5.37441
G1 X78.337 Y108.925 E5.38057
G1 X78.537 Y108.742 E5.38715
G1 X78.898 Y108.534 E5.39726
G1 X79.140 Y108.458 E5.40340
G1 X79.409 Y108.418 E5.41000
G1 X79.826 Y108.449 E5.42015
G1 X80.084 Y108.528 E5.42670
G1 X80.297 Y108.632 E5.43243
M201 X2000 Y2000
M204 P2000 T2000
G1 E0.43243 F4200.00000
G92 E0
G1 Z0.450 F9000.000
G1 X88.889 Y102.028 F9000.000
G1 Z0.200 F9000.000
G1 E5.00000 F4200.00000
M201 X600 Y600
M204 P600 T600
G1 F2400
G1 X88.866 Y101.869 E5.00388
G1 X89.145 Y101.789 E5.01092
G1 X89.505 Y101.641 E5.02037
G1 X89.866 Y101.440 E5.03038
G1 X90.163 Y101.230 E5.03921
G1 X90.453 Y100.971 E5.04864
G1 X90.730 Y100.663 E5.05868
G1 X90.954 Y100.345 E5.06813
G1 X91.141 Y100.004 E5.07755
G1 X91.289 Y99.645 E5.08697
G1 X91.390 Y99.296 E5.09579
G1 X91.461 Y98.892 E5.10574
G1 X91.482 Y98.514 E5.11492
G1 X91.482 Y86.982 E5.39465
G1 X110.518 Y86.982 E5.85640
G1 X110.518 Y98.514 E6.13612
G1 X110.539 Y98.891 E6.14529
G1 X110.604 Y99.273 E6.15468
G1 X110.712 Y99.647 E6.16412
G1 X110.860 Y100.006 E6.17356
G1 X111.048 Y100.347 E6.18300
G1 X111.273 Y100.666 E6.19246
G1 X111.544 Y100.968 E6.20231
G1 X111.835 Y101.228 E6.21177
G1 X112.153 Y101.452 E6.22121
G1 X112.493 Y101.640 E6.23065
G1 X112.838 Y101.782 E6.23969
G1 X113.126 Y101.867 E6.24697
G1 X113.103 Y102.025 E6.25085
G1 X88.941 Y102.028 E6.83695
M201 X2000 Y2000
M204 P2000 T2000
G1 E1.83695 F4200.00000
G92 E0
G1 Z0.450 F9000.000
G1 X99.945 Y94.217 F9000.000
G1 Z0.200 F9000.000
G1 E5.00000 F4200.00000
M201 X600 Y600
M204 P600 T600
G1 F960
G1 X99.847 Y94.045 E5.00479
G1 X99.743 Y93.715 E5.01319
G1 X99.724 Y93.501 E5.01840
G1 X99.739 Y93.308 E5.02310
G1 X99.788 Y93.103 E5.02821
G1 X99.941 Y92.789 E5.03668
G1 X100.063 Y92.635 E5.04143
G1 X100.220 Y92.491 E5.04660
G1 X100.522 Y92.317 E5.05507
G1 X100.709 Y92.258 E5.05982
G1 X100.920 Y92.227 E5.06500
G1 X101.269 Y92.253 E5.07348
G1 X101.471 Y92.315 E5.07862
G1 X101.649 Y92.402 E5.08340
G1 X101.922 Y92.619 E5.09186
G1 X102.055 Y92.783 E5.09700
G1 X102.153 Y92.955 E5.10179
G1 X102.257 Y93.285 E5.11020
G1 X102.276 Y93.499 E5.11540
G1 X102.261 Y93.692 E5.12010
G1 X102.212 Y93.897 E5.12521
G1 X102.059 Y94.211 E5.13368
G1 X101.938 Y94.364 E5.13841
G1 X101.797 Y94.496 E5.14310
G1 X101.572 Y94.640 E5.14958
G1 X101.295 Y94.741 E5.15673
G1 X101.080 Y94.773 E5.16201
G1 X100.731 Y94.747 E5.17049
G1 X100.529 Y94.685 E5.17562
G1 X100.351 Y94.598 E5.18041
G1 X100.078 Y94.381 E5.18888
G1 X99.978 Y94.257 E5.19274
M201 X2000 Y2000
M204 P2000 T2000
G1 X99.945 Y94.217 F9000.000
G1 X99.706 Y94.410 F9000.000
M201 X600 Y600
M204 P600 T600
G1 F960
G1 X99.564 Y94.169 E5.19954
G1 X99.440 Y93.775 E5.20956
G1 X99.416 Y93.503 E5.21618
G1 X99.435 Y93.260 E5.22209
G1 X99.497 Y92.999 E5.22859
G1 X99.679 Y92.624 E5.23870
G1 X99.837 Y92.425 E5.24486
G1 X100.037 Y92.242 E5.25144
G1 X100.398 Y92.034 E5.26155
G1 X100.640 Y91.958 E5.26769
G1 X100.909 Y91.918 E5.27429
G1 X101.326 Y91.949 E5.28444
G1 X101.584 Y92.028 E5.29099
G1 X101.814 Y92.140 E5.29718
G1 X102.139 Y92.399 E5.30727
G1 X102.309 Y92.609 E5.31382
G1 X102.436 Y92.831 E5.32002
G1 X102.560 Y93.225 E5.33004
G1 X102.584 Y93.497 E5.33666
G1 X102.565 Y93.740 E5.34257
G1 X102.503 Y94.001 E5.34908
G1 X102.321 Y94.376 E5.35918
G1 X102.164 Y94.573 E5.36529
G1 X101.986 Y94.739 E5.37120
G1 X101.709 Y94.917 E5.37919
G1 X101.371 Y95.040 E5.38792
G1 X101.091 Y95.082 E5.39478
G1 X100.674 Y95.051 E5.40493
G1 X100.416 Y94.972 E5.41148
G1 X100.186 Y94.860 E5.41767
G1 X99.861 Y94.601 E5.42776
G1 X99.739 Y94.451 E5.43244
M201 X2000 Y2000
M204 P2000 T2000
G1 E0.43244 F4200.00000
G92 E0
G1 Z0.450 F9000.000
G1 X166.596 Y101.982 F9000.000
G1 Z0.200 F9000.000
G1 E5.00000 F4200.00000
M201 X600 Y600
M204 P600 T600
G1 F2400
G1 X173.518 Y101.982 E5.16790
G1 X173.518 Y118.018 E5.55688
G1 X166.569 Y118.018 E5.72546
G1 X166.537 Y117.873 E5.72906
G1 X166.805 Y117.750 E5.73619
G1 X167.111 Y117.485 E5.74603
G1 X167.258 Y117.289 E5.75197
G1 X167.427 Y116.920 E5.76182
G1 X167.482 Y116.535 E5.77125
G1 X167.482 Y103.465 E6.08827
G1 X167.429 Y103.098 E6.09729
G1 X167.343 Y102.867 E6.10326
G1 X167.120 Y102.523 E6.11320
G1 X166.817 Y102.261 E6.12292
G1 X166.561 Y102.121 E6.13001
G1 X166.583 Y102.033 E6.13221
M201 X2000 Y2000
M204 P2000 T2000
G1 E1.13221 F4200.00000
G92 E0
G1 Z0.450 F9000.000
G1 X170.022 Y108.817 F9000.000
G1 Z0.200 F9000.000
G1 E5.00000 F4200.00000
M201 X600 Y600
M204 P600 T600
G1 F960
G1 X170.209 Y108.758 E5.00474
G1 X170.420 Y108.727 E5.00992
G1 X170.769 Y108.753 E5.01841
G1 X170.971 Y108.815 E5.02354
G1 X171.149 Y108.902 E5.02833
G1 X171.422 Y109.119 E5.03679
G1 X171.555 Y109.283 E5.04193
G1 X171.653 Y109.455 E5.04672
G1 X171.757 Y109.785 E5.05512
G1 X171.776 Y109.999 E5.06033
G1 X171.761 Y110.192 E5.06503
G1 X171.713 Y110.392 E5.07001
G1 X171.631 Y110.589 E5.07520
G1 X171.441 Y110.861 E5.08323
G1 X171.280 Y111.009 E5.08853
G1 X170.978 Y111.183 E5.09700
G1 X170.791 Y111.242 E5.10174
G1 X170.580 Y111.273 E5.10692
G1 X170.231 Y111.247 E5.11541
G1 X170.029 Y111.185 E5.12054
G1 X169.851 Y111.098 E5.12533
G1 X169.578 Y110.881 E5.13379
G1 X169.445 Y110.717 E5.13893
G1 X169.347 Y110.545 E5.14372
G1 X169.243 Y110.215 E5.15213
G1 X169.224 Y110.001 E5.15733
G1 X169.239 Y109.808 E5.16203
G1 X169.288 Y109.603 E5.16714
G1 X169.441 Y109.289 E5.17561
G1 X169.563 Y109.135 E5.18036
G1 X169.720 Y108.991 E5.18553
G1 X169.977 Y108.843 E5.19273
M201 X2000 Y2000
M204 P2000 T2000
G1 X170.022 Y108.817 F9000.000
G1 X169.869 Y108.551 F9000.000
M201 X600 Y600
M204 P600 T600
G1 F960
G1 X170.140 Y108.458 E5.19967
G1 X170.409 Y108.418 E5.20626
G1 X170.826 Y108.449 E5.21641
G1 X171.084 Y108.528 E5.22296
G1 X171.314 Y108.640 E5.22916
G1 X171.639 Y108.899 E5.23924
G1 X171.809 Y109.109 E5.24580
G1 X171.936 Y109.331 E5.25200
G1 X172.060 Y109.725 E5.26202
G1 X172.084 Y109.997 E5.26864
G1 X172.065 Y110.240 E5.27455
G1 X172.006 Y110.487 E5.28072
G1 X171.902 Y110.738 E5.28730
G1 X171.674 Y111.064 E5.29695
G1 X171.463 Y111.258 E5.30390
G1 X171.102 Y111.466 E5.31401
G1 X170.860 Y111.542 E5.32015
G1 X170.591 Y111.582 E5.32675
G1 X170.174 Y111.551 E5.33690
G1 X169.916 Y111.472 E5.34345
G1 X169.686 Y111.360 E5.34964
G1 X169.361 Y111.101 E5.35973
G1 X169.191 Y110.891 E5.36628
G1 X169.064 Y110.669 E5.37248
G1 X168.940 Y110.275 E5.38250
G1 X168.916 Y110.003 E5.38912
G1 X168.935 Y109.760 E5.39504
G1 X168.997 Y109.499 E5.40154
G1 X169.179 Y109.124 E5.41165
G1 X169.337 Y108.925 E5.41781
G1 X169.537 Y108.742 E5.42439
G1 X169.824 Y108.577 E5.43241
M201 X2000 Y2000
M204 P2000 T2000
G1 X168.641 Y109.567 F9000.000
M201 X600 Y600
M204 P600 T600
G1 F2400
G1 X168.674 Y109.428 E5.43593
G1 X168.885 Y108.992 E5.44778
G1 X169.079 Y108.748 E5.45542
G1 X169.322 Y108.525 E5.46348
G1 X169.742 Y108.284 E5.47535
G1 X170.008 Y108.200 E5.48217
G1 X173.243 Y104.964 E5.59423
G1 X173.243 Y105.403 E5.60496
G1 X170.495 Y108.152 E5.70015
G1 X170.893 Y108.191 E5.70996
G1 X173.243 Y105.841 E5.79135
G1 X173.243 Y106.280 E5.80209
G1 X171.221 Y108.302 E5.87212
G1 X171.504 Y108.458 E5.88002
G1 X173.243 Y106.718 E5.94027
G1 X173.243 Y107.157 E5.95100
G1 X171.748 Y108.652 E6.00279
G1 X171.824 Y108.712 E6.00517
G1 X171.959 Y108.879 E6.01043
G1 X173.243 Y107.595 E6.05490
G1 X173.243 Y108.033 E6.06564
G1 X172.132 Y109.145 E6.10412
G1 X172.187 Y109.240 E6.10682
G1 X172.255 Y109.460 E6.11245
G1 X173.243 Y108.472 E6.14666
G1 X173.243 Y108.910 E6.15740
G1 X172.340 Y109.813 E6.18868
G1 X172.359 Y110.028 E6.19395
G1 X172.342 Y110.250 E6.19940
G1 X173.243 Y109.349 E6.23061
G1 X173.243 Y109.787 E6.24135
G1 X172.160 Y110.870 E6.27887
M201 X2000 Y2000
M204 P2000 T2000
G1 E1.27887 F4200.00000
G92 E0
G1 Z0.450 F9000.000
G1 X173.178 Y117.743 F9000.000
G1 Z0.200 F9000.000
G1 E5.00000 F4200.00000
M201 X600 Y600
M204 P600 T600
G1 F2400
G1 X173.243 Y117.678 E5.00226
G1 X173.243 Y117.240 E5.01300
G1 X172.740 Y117.743 E5.03044
G1 X172.301 Y117.743 E5.04117
G1 X173.243 Y116.801 E5.07380
G1 X173.243 Y116.363 E5.08453
G1 X171.863 Y117.743 E5.13234
G1 X171.425 Y117.743 E5.14308
G1 X173.243 Y115.925 E5.20607
G1 X173.243 Y115.486 E5.21680
G1 X170.986 Y117.743 E5.29497
G1 X170.548 Y117.743 E5.30571
G1 X173.243 Y115.048 E5.39906
G1 X173.243 Y114.609 E5.40980
G1 X170.109 Y117.743 E5.51833
G1 X169.671 Y117.743 E5.52907
G1 X173.243 Y114.171 E5.65279
G1 X173.243 Y113.733 E5.66352
G1 X169.233 Y117.743 E5.80242
G1 X168.794 Y117.743 E5.81316
G1 X173.243 Y113.294 E5.96724
G1 X173.243 Y112.856 E5.97797
G1 X168.356 Y117.743 E6.14724
G1 X167.917 Y117.743 E6.15797
G1 X173.243 Y112.417 E6.34242
G1 X173.243 Y111.979 E6.35315
G1 X167.495 Y117.727 E6.55222
G1 X167.383 Y117.623 E6.55597
G1 X167.491 Y117.479 E6.56037
G1 X167.647 Y117.137 E6.56958
G1 X173.243 Y111.541 E6.76338
G1 X173.243 Y111.102 E6.77412
G1 X167.757 Y116.589 E6.96413
G1 X167.757 Y116.151 E6.97486
G1 X173.243 Y110.664 E7.16488
G1 X173.243 Y110.225 E7.17561
G1 X167.757 Y115.712 E7.36563
G1 X167.757 Y115.274 E7.37636
G1 X171.390 Y111.640 E7.50219
G1 X171.258 Y111.716 E7.50591
G1 X170.962 Y111.809 E7.51351
G1 X170.751 Y111.841 E7.51873
G1 X167.757 Y114.835 E7.62244
G1 X167.757 Y114.397 E7.63317
G1 X170.319 Y111.834 E7.72192
G1 X170.150 Y111.822 E7.72608
G1 X169.953 Y111.762 E7.73110
G1 X167.757 Y113.959 E7.80718
G1 X167.757 Y113.520 E7.81792
G1 X169.644 Y111.632 E7.88330
G1 X169.554 Y111.588 E7.88576
G1 X169.385 Y111.454 E7.89106
G1 X167.757 Y113.082 E7.94744
G1 X167.757 Y112.643 E7.95818
G1 X169.148 Y111.252 E8.00635
G1 X168.955 Y111.007 E8.01399
G1 X167.757 Y112.205 E8.05548
G1 X167.757 Y111.767 E8.06622
G1 X168.801 Y110.722 E8.10240
G1 X168.697 Y110.388 E8.11096
G1 X167.757 Y111.328 E8.14353
G1 X167.757 Y110.890 E8.15426
G1 X168.643 Y110.003 E8.18498
G1 X168.663 Y109.680 E8.19291
G1 X168.706 Y109.502 E8.19737
G1 X167.757 Y110.451 E8.23024
G1 X167.757 Y110.013 E8.24098
G1 X173.243 Y104.526 E8.43099
