; generated by Slic3r 1.3.1-dev on 2021-04-15 at 20:22:33

; external perimeters extrusion width = 0.35mm (3.68mm^3/s)
; perimeters extrusion width = 0.35mm (6.14mm^3/s)
; infill extrusion width = 0.40mm (10.71mm^3/s)
; solid infill extrusion width = 0.35mm (6.14mm^3/s)
; top infill extrusion width = 0.35mm (4.91mm^3/s)

M107
;Startcode FELIXprinters
;Pre-initialize
;================================
G90 ; absolute mode
M107 ; Turn off fan

; Heat up heaters
;================================
; First start heating up, this will prevent damage, if previous print is still on the bed and 
; stuck to the hot-end
G90 ; Absolute positioning
M82 ; Extruder in absolute
M104 S210
M140 S60
M109 S210
M190 S60

; Move up head a little before homing to prevent collision with remainders of filament and bed.
;================================
G91 ; Make coordinates relative
G1 Z1 F200; Move up head a little to prevent tw mm (from current position because it is all relative now) 
G90 ; Use absolute coordinates again

; Home printer
;================================
G28 ; Home all axes

; Purge extruder by drawing 2 lines
;================================
G92 E0			; reset extruder
G1 Z1.0 F3000		; move z down little to prevent scratching of surface
G1 X20.0 Y0.1 Z0.3 F3000.0	; move to start-line position
G1 X200.0 Y0.1 Z0.3 F1500.0 E15	; draw 1st line
G1 X200.0 Y1 Z0.3 F3000.0	; move to side a little
G1 X20.0 Y1 Z0.3 F1500.0 E30	; draw 2nd line
G1 E29.5 F3000		; retract filament 1.5mm
G92 E0					; reset extruder
; done purging
M117 Done purging

; Post-initialize
;================================
M106 ; Turn on fans
M117 FELIXprinting...
; Filament gcode

G21 ; set units to millimeters
G90 ; use absolute coordinates
M82 ; use absolute distances for extrusion
G92 E0
G92 E0
G1 E-5.00000 F4200.00000
G92 E0
G1 Z0.250 F9000.000
G1 X87.825 Y142.225 F9000.000
G1 Z0.200 F9000.000
G1 E5.00000 F4200.00000
M201 X600 Y600
M204 P600 T600
G1 F1440
G1 X87.825 Y145.725 E5.08490
G1 X85.572 Y145.725 E5.13954
G1 X84.175 Y144.328 E5.18748
G1 X84.175 Y135.517 E5.40120
G1 X88.466 Y135.507 E5.50529
G1 X88.754 Y135.428 E5.51252
G1 X88.893 Y135.352 E5.51638
G1 X89.097 Y135.177 E5.52290
G1 X89.249 Y134.939 E5.52975
G1 X89.304 Y134.786 E5.53369
G1 X89.344 Y134.488 E5.54098
G1 X89.344 Y66.512 E7.18988
G1 X89.304 Y66.214 E7.19716
G1 X89.249 Y66.061 E7.20111
G1 X89.097 Y65.823 E7.20795
G1 X88.894 Y65.648 E7.21447
G1 X88.754 Y65.572 E7.21833
G1 X88.466 Y65.493 E7.22556
G1 X84.175 Y65.483 E7.32965
G1 X84.175 Y59.275 E7.48025
G1 X88.899 Y59.275 E7.59483
G1 X90.886 Y62.716 E7.69121
G1 X91.107 Y63.054 E7.70103
G1 X91.379 Y63.391 E7.71153
G1 X91.686 Y63.697 E7.72203
G1 X91.898 Y63.877 E7.72878
G1 X92.404 Y64.220 E7.74361
G1 X92.794 Y64.417 E7.75421
G1 X93.200 Y64.572 E7.76476
G1 X93.621 Y64.685 E7.77531
G1 X94.048 Y64.752 E7.78581
G1 X94.480 Y64.775 E7.79631
G1 X155.520 Y64.775 E9.27695
G1 X155.952 Y64.752 E9.28745
G1 X156.379 Y64.685 E9.29795
G1 X156.800 Y64.572 E9.30850
G1 X157.206 Y64.417 E9.31906
G1 X157.611 Y64.211 E9.33008
G1 X157.976 Y63.973 E9.34063
G1 X158.313 Y63.699 E9.35119
G1 X158.607 Y63.405 E9.36127
G1 X158.893 Y63.054 E9.37223
G1 X159.129 Y62.691 E9.38273
G1 X161.101 Y59.275 E9.47843
G1 X165.825 Y59.275 E9.59302
G1 X165.825 Y65.483 E9.74361
G1 X161.534 Y65.493 E9.84770
G1 X161.246 Y65.573 E9.85494
G1 X161.106 Y65.648 E9.85880
G1 X160.903 Y65.823 E9.86530
G1 X160.751 Y66.061 E9.87215
G1 X160.696 Y66.214 E9.87610
G1 X160.656 Y66.512 E9.88339
G1 X160.656 Y134.488 E11.53229
G1 X160.696 Y134.786 E11.53958
G1 X160.751 Y134.939 E11.54352
G1 X160.903 Y135.177 E11.55037
G1 X161.106 Y135.352 E11.55688
G1 X161.246 Y135.428 E11.56073
G1 X161.534 Y135.507 E11.56797
G1 X165.825 Y135.517 E11.67206
G1 X165.825 Y144.328 E11.88578
G1 X164.428 Y145.725 E11.93372
G1 X162.175 Y145.725 E11.98836
G1 X162.175 Y142.225 E12.07326
G1 X87.878 Y142.225 E13.87550
M201 X2000 Y2000
M204 P2000 T2000
G1 X87.475 Y142.220 F9000.000
G1 E8.87550 F4200.00000
G92 E0
G1 Z0.450 F9000.000
G1 X162.482 Y141.918 F9000.000
G1 Z0.200 F9000.000
G1 E5.00000 F4200.00000
M201 X600 Y600
M204 P600 T600
G1 F2400
G1 X109.230 Y141.918 E6.29174
G1 X109.208 Y141.759 E6.29564
G1 X109.371 Y141.713 E6.29974
G1 X109.571 Y141.605 E6.30525
G1 X109.830 Y141.383 E6.31353
G1 X110.025 Y141.077 E6.32234
G1 X110.103 Y140.860 E6.32793
G1 X110.151 Y140.509 E6.33653
G1 X110.141 Y66.319 E8.13616
G1 X110.041 Y65.958 E8.14525
G1 X109.933 Y65.758 E8.15075
G1 X109.707 Y65.495 E8.15918
G1 X109.386 Y65.290 E8.16840
G1 X109.209 Y65.242 E8.17285
G1 X109.231 Y65.082 E8.17676
G1 X121.755 Y65.082 E8.48056
G1 X121.782 Y65.235 E8.48432
G1 X121.597 Y65.301 E8.48909
G1 X121.291 Y65.497 E8.49790
G1 X121.068 Y65.756 E8.50618
G1 X120.967 Y65.943 E8.51134
G1 X120.892 Y66.162 E8.51696
G1 X120.849 Y66.493 E8.52504
G1 X120.859 Y122.681 E9.88801
G1 X120.959 Y123.042 E9.89710
G1 X121.067 Y123.242 E9.90260
G1 X121.293 Y123.505 E9.91103
G1 X121.618 Y123.712 E9.92036
G1 X122.029 Y123.818 E9.93066
G1 X128.008 Y123.814 E10.07570
G1 X128.371 Y123.713 E10.08483
G1 X128.571 Y123.605 E10.09034
G1 X128.830 Y123.383 E10.09862
G1 X129.025 Y123.077 E10.10743
G1 X129.103 Y122.860 E10.11302
G1 X129.151 Y122.509 E10.12162
G1 X129.141 Y66.319 E11.48461
G1 X129.041 Y65.958 E11.49371
G1 X128.933 Y65.758 E11.49921
G1 X128.707 Y65.495 E11.50763
G1 X128.386 Y65.290 E11.51686
G1 X128.209 Y65.242 E11.52131
G1 X128.231 Y65.082 E11.52521
G1 X140.755 Y65.082 E11.82902
G1 X140.782 Y65.235 E11.83278
G1 X140.597 Y65.301 E11.83754
G1 X140.291 Y65.497 E11.84636
G1 X140.068 Y65.756 E11.85464
G1 X139.967 Y65.943 E11.85980
G1 X139.892 Y66.162 E11.86542
G1 X139.849 Y66.493 E11.87350
G1 X139.859 Y122.681 E13.23647
G1 X139.959 Y123.042 E13.24556
G1 X140.067 Y123.242 E13.25106
G1 X140.293 Y123.505 E13.25948
G1 X140.614 Y123.710 E13.26871
G1 X140.992 Y123.814 E13.27823
G1 X148.508 Y123.814 E13.46054
G1 X148.871 Y123.713 E13.46967
G1 X149.071 Y123.605 E13.47519
G1 X149.330 Y123.383 E13.48347
G1 X149.525 Y123.077 E13.49228
G1 X149.603 Y122.860 E13.49786
G1 X149.651 Y122.509 E13.50646
G1 X149.641 Y66.319 E14.86946
G1 X149.541 Y65.958 E14.87855
G1 X149.433 Y65.758 E14.88405
G1 X149.207 Y65.495 E14.89248
G1 X148.886 Y65.290 E14.90171
G1 X148.709 Y65.242 E14.90616
G1 X148.731 Y65.082 E14.91006
G1 X155.528 Y65.082 E15.07494
G1 X155.984 Y65.058 E15.08602
G1 X156.443 Y64.986 E15.09729
G1 X156.894 Y64.865 E15.10862
G1 X157.331 Y64.698 E15.11997
G1 X157.765 Y64.477 E15.13178
G1 X158.157 Y64.222 E15.14313
G1 X158.519 Y63.927 E15.15445
G1 X158.835 Y63.611 E15.16530
G1 X159.141 Y63.236 E15.17704
G1 X159.390 Y62.852 E15.18814
G1 X161.278 Y59.582 E15.27973
G1 X165.518 Y59.582 E15.38257
G1 X165.518 Y65.177 E15.51828
G1 X161.492 Y65.186 E15.61594
G1 X161.131 Y65.286 E15.62503
G1 X160.931 Y65.394 E15.63053
G1 X160.668 Y65.620 E15.63894
G1 X160.474 Y65.925 E15.64773
G1 X160.396 Y66.141 E15.65329
G1 X160.349 Y66.491 E15.66186
G1 X160.349 Y134.509 E17.31176
G1 X160.396 Y134.859 E17.32034
G1 X160.474 Y135.075 E17.32590
G1 X160.668 Y135.381 E17.33469
G1 X160.931 Y135.606 E17.34310
G1 X161.131 Y135.714 E17.34860
G1 X161.492 Y135.814 E17.35769
G1 X165.518 Y135.823 E17.45535
G1 X165.518 Y144.200 E17.65855
G1 X164.300 Y145.418 E17.70032
G1 X162.482 Y145.418 E17.74442
G1 X162.482 Y141.970 E17.82805
M201 X2000 Y2000
M204 P2000 T2000
G1 E12.82805 F4200.00000
G92 E0
G1 Z0.450 F9000.000
G1 X119.613 Y128.919 F9000.000
G1 Z0.200 F9000.000
G1 E5.00000 F4200.00000
M201 X600 Y600
M204 P600 T600
G1 F1440
G1 X119.533 Y129.174 E5.00648
G1 X119.422 Y129.417 E5.01297
G1 X119.293 Y129.632 E5.01904
G1 X119.131 Y129.839 E5.02542
G1 X118.939 Y130.031 E5.03201
G1 X118.731 Y130.193 E5.03840
G1 X118.505 Y130.330 E5.04482
G1 X118.089 Y130.494 E5.05567
G1 X117.765 Y130.559 E5.06369
G1 X117.505 Y130.575 E5.06999
G1 X113.495 Y130.575 E5.16728
G1 X113.237 Y130.559 E5.17354
G1 X112.981 Y130.512 E5.17985
G1 X112.720 Y130.430 E5.18648
G1 X112.492 Y130.327 E5.19256
G1 X112.268 Y130.193 E5.19889
G1 X112.061 Y130.031 E5.20527
G1 X111.869 Y129.839 E5.21186
G1 X111.707 Y129.631 E5.21824
G1 X111.577 Y129.417 E5.22432
G1 X111.467 Y129.174 E5.23080
G1 X111.387 Y128.918 E5.23728
G1 X111.341 Y128.663 E5.24358
G1 X111.325 Y128.405 E5.24984
G1 X111.325 Y70.594 E6.65217
G1 X111.342 Y70.327 E6.65866
G1 X111.387 Y70.081 E6.66473
G1 X111.465 Y69.832 E6.67106
G1 X111.572 Y69.592 E6.67744
G1 X111.708 Y69.368 E6.68379
G1 X111.897 Y69.129 E6.69118
G1 X112.058 Y68.971 E6.69665
G1 X112.269 Y68.807 E6.70312
G1 X112.492 Y68.672 E6.70945
G1 X112.721 Y68.570 E6.71553
G1 X112.981 Y68.488 E6.72216
G1 X113.237 Y68.441 E6.72847
G1 X113.495 Y68.425 E6.73473
G1 X117.505 Y68.425 E6.83202
G1 X117.765 Y68.441 E6.83832
G1 X118.089 Y68.506 E6.84634
G1 X118.505 Y68.670 E6.85719
G1 X118.732 Y68.807 E6.86362
G1 X118.943 Y68.972 E6.87011
G1 X119.131 Y69.161 E6.87660
G1 X119.293 Y69.369 E6.88297
G1 X119.423 Y69.583 E6.88905
G1 X119.531 Y69.823 E6.89543
G1 X119.613 Y70.081 E6.90201
G1 X119.659 Y70.337 E6.90831
G1 X119.675 Y70.595 E6.91457
G1 X119.675 Y128.405 E8.31689
G1 X119.659 Y128.663 E8.32316
G1 X119.622 Y128.867 E8.32819
M201 X2000 Y2000
M204 P2000 T2000
G1 X119.613 Y128.919 F9000.000
G1 X119.906 Y129.010 F9000.000
M201 X600 Y600
M204 P600 T600
G1 F2400
G1 X119.820 Y129.283 E8.33512
G1 X119.695 Y129.561 E8.34251
G1 X119.546 Y129.806 E8.34947
G1 X119.362 Y130.043 E8.35675
G1 X119.143 Y130.262 E8.36426
G1 X118.906 Y130.446 E8.37155
G1 X118.641 Y130.606 E8.37904
G1 X118.176 Y130.790 E8.39117
G1 X117.804 Y130.864 E8.40037
G1 X117.515 Y130.882 E8.40740
G1 X113.485 Y130.882 E8.50515
G1 X113.200 Y130.864 E8.51209
G1 X112.907 Y130.811 E8.51931
G1 X112.611 Y130.718 E8.52684
G1 X112.349 Y130.600 E8.53380
G1 X112.094 Y130.446 E8.54102
G1 X111.857 Y130.261 E8.54832
G1 X111.638 Y130.042 E8.55583
G1 X111.454 Y129.806 E8.56310
G1 X111.305 Y129.560 E8.57006
G1 X111.180 Y129.283 E8.57744
G1 X111.089 Y128.992 E8.58484
G1 X111.035 Y128.700 E8.59204
G1 X111.018 Y128.415 E8.59897
G1 X111.018 Y70.584 E10.00177
G1 X111.037 Y70.290 E10.00893
G1 X111.089 Y70.008 E10.01589
G1 X111.177 Y69.723 E10.02311
G1 X111.300 Y69.450 E10.03039
G1 X111.455 Y69.192 E10.03768
G1 X111.669 Y68.923 E10.04601
G1 X111.855 Y68.740 E10.05236
G1 X112.094 Y68.554 E10.05970
G1 X112.349 Y68.400 E10.06693
G1 X112.611 Y68.282 E10.07389
G1 X112.907 Y68.189 E10.08142
G1 X113.200 Y68.135 E10.08864
G1 X113.485 Y68.118 E10.09557
G1 X117.515 Y68.118 E10.19332
G1 X117.804 Y68.136 E10.20036
G1 X118.176 Y68.210 E10.20955
G1 X118.641 Y68.394 E10.22170
G1 X118.906 Y68.554 E10.22919
G1 X119.147 Y68.742 E10.23659
G1 X119.362 Y68.958 E10.24400
G1 X119.546 Y69.194 E10.25127
G1 X119.695 Y69.440 E10.25822
G1 X119.819 Y69.713 E10.26550
G1 X119.911 Y70.008 E10.27299
G1 X119.965 Y70.300 E10.28020
G1 X119.982 Y70.585 E10.28713
G1 X119.982 Y128.415 E11.68991
G1 X119.965 Y128.700 E11.69685
G1 X119.917 Y128.959 E11.70324
M201 X2000 Y2000
M204 P2000 T2000
G1 E6.70324 F4200.00000
G92 E0
G1 Z0.450 F9000.000
G1 X130.325 Y128.405 F9000.000
G1 Z0.200 F9000.000
G1 E5.00000 F4200.00000
M201 X600 Y600
M204 P600 T600
G1 F1440
G1 X130.325 Y70.595 E6.40232
G1 X130.341 Y70.337 E6.40858
G1 X130.387 Y70.081 E6.41489
G1 X130.469 Y69.822 E6.42147
G1 X130.572 Y69.592 E6.42760
G1 X130.707 Y69.368 E6.43393
G1 X130.869 Y69.161 E6.44031
G1 X131.053 Y68.976 E6.44663
G1 X131.268 Y68.807 E6.45328
G1 X131.492 Y68.672 E6.45961
G1 X131.733 Y68.565 E6.46600
G1 X132.006 Y68.482 E6.47293
G1 X132.237 Y68.441 E6.47864
G1 X132.495 Y68.425 E6.48489
G1 X136.505 Y68.425 E6.58218
G1 X136.764 Y68.441 E6.58845
G1 X137.031 Y68.491 E6.59505
G1 X137.268 Y68.565 E6.60108
G1 X137.508 Y68.672 E6.60745
G1 X137.732 Y68.807 E6.61379
G1 X137.943 Y68.972 E6.62028
G1 X138.131 Y69.161 E6.62677
G1 X138.293 Y69.369 E6.63314
G1 X138.423 Y69.583 E6.63922
G1 X138.531 Y69.823 E6.64560
G1 X138.613 Y70.081 E6.65218
G1 X138.659 Y70.337 E6.65848
G1 X138.675 Y70.595 E6.66474
G1 X138.675 Y128.405 E8.06706
G1 X138.659 Y128.663 E8.07333
G1 X138.613 Y128.919 E8.07963
G1 X138.533 Y129.173 E8.08610
G1 X138.428 Y129.408 E8.09234
G1 X138.293 Y129.632 E8.09868
G1 X138.124 Y129.847 E8.10532
G1 X137.939 Y130.031 E8.11164
G1 X137.741 Y130.186 E8.11775
G1 X137.508 Y130.328 E8.12435
G1 X137.268 Y130.435 E8.13073
G1 X137.031 Y130.509 E8.13676
G1 X136.764 Y130.559 E8.14336
G1 X136.505 Y130.575 E8.14963
G1 X132.495 Y130.575 E8.24692
G1 X132.236 Y130.559 E8.25319
G1 X131.969 Y130.509 E8.25979
G1 X131.732 Y130.435 E8.26582
G1 X131.492 Y130.328 E8.27220
G1 X131.268 Y130.193 E8.27853
G1 X131.061 Y130.031 E8.28491
G1 X130.869 Y129.839 E8.29150
G1 X130.707 Y129.631 E8.29788
G1 X130.577 Y129.417 E8.30396
G1 X130.467 Y129.174 E8.31044
G1 X130.387 Y128.918 E8.31693
G1 X130.341 Y128.663 E8.32323
G1 X130.328 Y128.458 E8.32821
M201 X2000 Y2000
M204 P2000 T2000
G1 X130.325 Y128.405 F9000.000
G1 X130.018 Y128.405 F9000.000
M201 X600 Y600
M204 P600 T600
G1 F2400
G1 X130.018 Y70.585 E9.73076
G1 X130.035 Y70.300 E9.73770
G1 X130.089 Y70.007 E9.74491
G1 X130.181 Y69.713 E9.75239
G1 X130.300 Y69.449 E9.75941
G1 X130.454 Y69.194 E9.76663
G1 X130.638 Y68.958 E9.77391
G1 X130.848 Y68.746 E9.78114
G1 X131.094 Y68.554 E9.78870
G1 X131.350 Y68.400 E9.79595
G1 X131.625 Y68.277 E9.80326
G1 X131.934 Y68.182 E9.81110
G1 X132.201 Y68.135 E9.81768
G1 X132.485 Y68.118 E9.82458
G1 X136.515 Y68.118 E9.92233
G1 X136.801 Y68.136 E9.92930
G1 X137.105 Y68.192 E9.93680
G1 X137.377 Y68.277 E9.94370
G1 X137.651 Y68.400 E9.95097
G1 X137.906 Y68.554 E9.95821
G1 X138.147 Y68.742 E9.96561
G1 X138.362 Y68.958 E9.97301
G1 X138.546 Y69.194 E9.98028
G1 X138.695 Y69.440 E9.98724
G1 X138.819 Y69.713 E9.99451
G1 X138.911 Y70.008 E10.00201
G1 X138.965 Y70.300 E10.00922
G1 X138.982 Y70.585 E10.01615
G1 X138.982 Y128.415 E11.41893
G1 X138.965 Y128.700 E11.42587
G1 X138.911 Y128.992 E11.43307
G1 X138.821 Y129.282 E11.44044
G1 X138.700 Y129.551 E11.44758
G1 X138.546 Y129.806 E11.45482
G1 X138.354 Y130.051 E11.46237
G1 X138.143 Y130.262 E11.46960
G1 X137.916 Y130.439 E11.47659
G1 X137.651 Y130.600 E11.48410
G1 X137.377 Y130.723 E11.49138
G1 X137.105 Y130.808 E11.49829
G1 X136.801 Y130.864 E11.50579
G1 X136.515 Y130.882 E11.51275
G1 X132.485 Y130.882 E11.61050
G1 X132.199 Y130.864 E11.61747
G1 X131.895 Y130.808 E11.62497
G1 X131.623 Y130.723 E11.63187
G1 X131.349 Y130.600 E11.63914
G1 X131.094 Y130.446 E11.64637
G1 X130.857 Y130.261 E11.65366
G1 X130.638 Y130.042 E11.66117
G1 X130.454 Y129.806 E11.66845
G1 X130.305 Y129.560 E11.67541
G1 X130.180 Y129.283 E11.68279
G1 X130.089 Y128.992 E11.69019
G1 X130.035 Y128.700 E11.69739
G1 X130.021 Y128.458 E11.70328
M201 X2000 Y2000
M204 P2000 T2000
G1 E6.70328 F4200.00000
G92 E0
G1 Z0.450 F9000.000
G1 X150.825 Y128.405 F9000.000
G1 Z0.200 F9000.000
G1 E5.00000 F4200.00000
M201 X600 Y600
M204 P600 T600
G1 F1440
G1 X150.825 Y70.595 E6.40232
G1 X150.841 Y70.337 E6.40858
G1 X150.887 Y70.081 E6.41489
G1 X150.969 Y69.822 E6.42147
G1 X151.072 Y69.592 E6.42760
G1 X151.207 Y69.369 E6.43392
G1 X151.369 Y69.161 E6.44030
G1 X151.553 Y68.977 E6.44662
G1 X151.768 Y68.807 E6.45327
G1 X151.992 Y68.672 E6.45961
G1 X152.232 Y68.565 E6.46599
G1 X152.481 Y68.487 E6.47232
G1 X152.724 Y68.443 E6.47832
G1 X152.994 Y68.425 E6.48488
G1 X157.005 Y68.425 E6.58218
G1 X157.264 Y68.441 E6.58845
G1 X157.531 Y68.491 E6.59505
G1 X157.783 Y68.571 E6.60146
G1 X158.165 Y68.763 E6.61184
G1 X158.441 Y68.971 E6.62023
G1 X158.631 Y69.161 E6.62674
G1 X158.793 Y69.368 E6.63312
G1 X158.922 Y69.583 E6.63919
G1 X159.031 Y69.822 E6.64557
G1 X159.113 Y70.081 E6.65216
G1 X159.159 Y70.337 E6.65847
G1 X159.175 Y70.595 E6.66473
G1 X159.175 Y128.405 E8.06705
G1 X159.159 Y128.663 E8.07332
G1 X159.112 Y128.919 E8.07962
G1 X159.033 Y129.174 E8.08609
G1 X158.922 Y129.418 E8.09259
G1 X158.793 Y129.632 E8.09867
G1 X158.631 Y129.839 E8.10505
G1 X158.439 Y130.031 E8.11164
G1 X158.231 Y130.193 E8.11802
G1 X158.008 Y130.328 E8.12435
G1 X157.768 Y130.435 E8.13072
G1 X157.531 Y130.509 E8.13675
G1 X157.264 Y130.559 E8.14334
G1 X157.005 Y130.575 E8.14961
G1 X152.995 Y130.575 E8.24690
G1 X152.737 Y130.559 E8.25317
G1 X152.481 Y130.513 E8.25947
G1 X152.231 Y130.435 E8.26582
